!!!!SEGMENT: pl-sa--267-a-vii-27_sieprawski-pawel--plaudite-sidera.krn
!!!cenid: 17xx:325
!!!COM: Sieprawski, Paweł
!!!COM-rismid: pe41012330
!!!CDT: <1706->1737
!!!CNT: Polish
!!!OTL: Plaudite sidera
!!!PDT: 1716
!!!AGN: Sacred
!!!SMS-siglum: PL-SA
!!!SMS-shelfmark: 267/A VII 27
!!!SMS-shelfwork: W
!!!NIFC-rismid: 1001039856
!!!URL-scan: http://bc.bdsandomierz.pl/dlibra/publication/1750/edition/1718/content
!!!ONB-nifc:
**kern	**fba	**kern	**kern	**kern	**text	**kern	**text	**kern	**text	**kern	**text	**kern
*part8	*	*part7	*part6	*part5	*part5	*part4	*part4	*part3	*part3	*part2	*part2	*part1
*staff8	*	*staff7	*staff6	*staff5	*staff5	*staff4	*staff4	*staff3	*staff3	*staff2	*staff2	*staff1
*I"??	*	*I"Violino ſecundo	*I"Violino Primo	*I"Baſso	*	*I"Tenor	*	*I"Alto	*	*I"Canto	*	*I"Clarino Solo
*I'org	*	*I'vl 2	*I'vl 1	*I'B	*	*I'T	*	*I'A	*	*I'S	*	*I'clno
*clefF4	*	*clefG2	*clefG2	*clefF4	*	*clefC4	*	*clefC3	*	*clefC1	*	*clefG2
*	*	*	*	*	*	*	*	*	*	*	*	*ITrd-1c-2
*k[f#c#f#]	*	*k[f#c#]	*k[f#c#]	*k[f#c#]	*	*k[f#c#]	*	*k[f#c#]	*	*k[f#c#]	*	*k[f#c#]
*M2/2	*	*M2/2	*M2/2	*M2/2	*	*M2/2	*	*M2/2	*	*M2/2	*	*M2/2
*met(c|)	*	*met(c|)	*met(c|)	*met(c|)	*	*met(c|)	*	*met(c|)	*	*met(c|)	*	*met(c|)
=1	=1	=1	=1	=1	=1	=1	=1	=1	=1	=1	=1	=1
!LO:TX:t=P:problem:nie widać nazwy instrumentu	!	!	!	!	!	!LO:TX:a:t=9	!	!LO:TX:a:t=9	!	!	!	!LO:SIC:o:s=:v:wymazany takt
4D/	.	4a/	4ff#\	00r	.	00r	.	00r	.	00r	.	8ff#\L
.	.	.	.	.	.	.	.	.	.	.	.	16ee\L
.	.	.	.	.	.	.	.	.	.	.	.	16dd\JJ
8r	.	8r	8r	.	.	.	.	.	.	.	.	4r
8C#/	.	8ee\	8aa\	.	.	.	.	.	.	.	.	.
8D\L	.	8a/L	8ff#\L	.	.	.	.	.	.	.	.	2r
8C#/	.	8a/	8ee\	.	.	.	.	.	.	.	.	.
8D\	.	8a/	8ff#\	.	.	.	.	.	.	.	.	.
8BB/J	6	8dd\J	8gg#X\J	.	.	.	.	.	.	.	.	.
=2	=2	=2	=2	=2	=2	=2	=2	=2	=2	=2	=2	=2
!	!	!LO:TX:t=P:problem:mixed beam	!LO:TX:t=P:problem:mixed beam	!	!	!	!	!	!	!	!	!
4AA/	.	8cc#\L	8aa\L	.	.	.	.	.	.	.	.	4dd\
.	.	8c#/J	8a/J	.	.	.	.	.	.	.	.	.
4r	.	4r	4r	.	.	.	.	.	.	.	.	8r
.	.	.	.	.	.	.	.	.	.	.	.	8ff#\
!	!	!	!	!	!	!	!	!	!	!	!	!LO:TX:t=P:problem:mixed beam
2r	.	2r	2r	.	.	.	.	.	.	.	.	8ee\L
.	.	.	.	.	.	.	.	.	.	.	.	8a/J
.	.	.	.	.	.	.	.	.	.	.	.	16aa\LL
.	.	.	.	.	.	.	.	.	.	.	.	16bb\
.	.	.	.	.	.	.	.	.	.	.	.	16aa\
.	.	.	.	.	.	.	.	.	.	.	.	16gg\JJ
=3	=3	=3	=3	=3	=3	=3	=3	=3	=3	=3	=3	=3
4r	.	4r	4r	.	.	.	.	.	.	.	.	8ff#\L
.	.	.	.	.	.	.	.	.	.	.	.	16ee\L
.	.	.	.	.	.	.	.	.	.	.	.	16dd\JJ
4D\	.	8a/L	8dd\L	.	.	.	.	.	.	.	.	4r
.	.	8a/J	8dd\J	.	.	.	.	.	.	.	.	.
4G\	.	4dd\	4b\	.	.	.	.	.	.	.	.	16r
.	.	.	.	.	.	.	.	.	.	.	.	16dd\LL
.	.	.	.	.	.	.	.	.	.	.	.	16ee\
.	.	.	.	.	.	.	.	.	.	.	.	16ff#\JJ
!	!	!	!	!	!	!	!	!	!	!	!	!LO:LB:g=original
4r	.	4r	4r	.	.	.	.	.	.	.	.	16gg\LL
.	.	.	.	.	.	.	.	.	.	.	.	16aa\
.	.	.	.	.	.	.	.	.	.	.	.	16gg\
.	.	.	.	.	.	.	.	.	.	.	.	16ff#\JJ
=4	=4	=4	=4	=4	=4	=4	=4	=4	=4	=4	=4	=4
4r	.	4r	4r	.	.	.	.	.	.	.	.	4ee\
4E\	.	8b\L	8ee\L	.	.	.	.	.	.	.	.	4r
.	.	8b\J	8ee\J	.	.	.	.	.	.	.	.	.
4A\	.	4ee\	4cc#\	.	.	.	.	.	.	.	.	16r
.	.	.	.	.	.	.	.	.	.	.	.	16ee\LL
.	.	.	.	.	.	.	.	.	.	.	.	16ff#\
.	.	.	.	.	.	.	.	.	.	.	.	16gg\JJ
4r	.	4r	4r	.	.	.	.	.	.	.	.	16aa\LL
.	.	.	.	.	.	.	.	.	.	.	.	16bb\
.	.	.	.	.	.	.	.	.	.	.	.	16aa\
.	.	.	.	.	.	.	.	.	.	.	.	16gg\JJ
=5	=5	=5	=5	=5	=5	=5	=5	=5	=5	=5	=5	=5
4r	.	4r	4r	00r	.	00r	.	00r	.	00r	.	4ff#\
4F#\	.	8dd\L	8ff#\L	.	.	.	.	.	.	.	.	4r
.	.	8dd\J	8ff#\J	.	.	.	.	.	.	.	.	.
4B\	.	16b\LL	16dd\LL	.	.	.	.	.	.	.	.	2r
.	.	16b\	16dd\	.	.	.	.	.	.	.	.	.
.	.	16cc#\	16ee\	.	.	.	.	.	.	.	.	.
.	.	16dd\JJ	16ff#\JJ	.	.	.	.	.	.	.	.	.
4G\	6	16ee\LL	16gg\LL	.	.	.	.	.	.	.	.	.
.	.	16ff#\	16aa\	.	.	.	.	.	.	.	.	.
.	.	16ee\	16ff#\	.	.	.	.	.	.	.	.	.
.	.	16ee\JJ	16gg\JJ	.	.	.	.	.	.	.	.	.
!	!	!LO:LB:g=original	!LO:LB:g=original	!	!	!	!	!	!	!	!	!
=6	=6	=6	=6	=6	=6	=6	=6	=6	=6	=6	=6	=6
!LO:TX:t=P:problem:mixed beam	!	!	!	!	!	!	!	!	!	!	!	!
8A\L	.	8cc#\L	8ee\L	.	.	.	.	.	.	.	.	2r
8D\	.	8dd\	16ff#\L	.	.	.	.	.	.	.	.	.
.	.	.	16ee\JJ	.	.	.	.	.	.	.	.	.
8A\	.	8.dd\	8ff#\L	.	.	.	.	.	.	.	.	.
8AA/J	.	.	16ee\L	.	.	.	.	.	.	.	.	.
.	.	16cc#\Jk	16dd\JJ	.	.	.	.	.	.	.	.	.
!LO:LB:g=original	!	!	!	!	!	!	!	!	!	!	!	!
4D/	.	4dd\	4dd\	.	.	.	.	.	.	.	.	16r
.	.	.	.	.	.	.	.	.	.	.	.	16ee\LL
.	.	.	.	.	.	.	.	.	.	.	.	16ff#\
.	.	.	.	.	.	.	.	.	.	.	.	16gg\JJ
8r	.	4r	4r	.	.	.	.	.	.	.	.	16aa\LL
.	.	.	.	.	.	.	.	.	.	.	.	16bb\
8C#/	.	.	.	.	.	.	.	.	.	.	.	16aa\
.	.	.	.	.	.	.	.	.	.	.	.	16gg\JJ
!	!	!	!	!	!	!	!	!	!	!	!	!LO:LB:g=original
=7	=7	=7	=7	=7	=7	=7	=7	=7	=7	=7	=7	=7
!LO:TX:t=P:problem:mixed beam	!	!	!	!	!	!	!	!	!	!	!	!
8D\L	.	2r	2r	.	.	.	.	.	.	.	.	8ff#\L
8G\	.	.	.	.	.	.	.	.	.	.	.	16bb\L
.	.	.	.	.	.	.	.	.	.	.	.	16ff#\JJ
8A\	.	.	.	.	.	.	.	.	.	.	.	8.ee\L
8AA/J	.	.	.	.	.	.	.	.	.	.	.	.
.	.	.	.	.	.	.	.	.	.	.	.	16dd\Jk
4D\	.	4f#/	16r	.	.	.	.	.	.	.	.	4dd\
.	.	.	16a/LL	.	.	.	.	.	.	.	.	.
.	.	.	16b\	.	.	.	.	.	.	.	.	.
.	.	.	16cc#\JJ	.	.	.	.	.	.	.	.	.
4F#\	6	4a/	16dd\LL	.	.	.	.	.	.	.	.	4r
.	.	.	16ee\	.	.	.	.	.	.	.	.	.
.	.	.	16cc#\	.	.	.	.	.	.	.	.	.
.	.	.	16dd\JJ	.	.	.	.	.	.	.	.	.
=8	=8	=8	=8	=8	=8	=8	=8	=8	=8	=8	=8	=8
4G\	.	4g/	4b/	.	.	.	.	.	.	.	.	16r
.	.	.	.	.	.	.	.	.	.	.	.	16dd\LL
.	.	.	.	.	.	.	.	.	.	.	.	16ee\
.	.	.	.	.	.	.	.	.	.	.	.	16ff#\JJ
4r	.	4r	4r	.	.	.	.	.	.	.	.	16gg\LL
.	.	.	.	.	.	.	.	.	.	.	.	16aa\
.	.	.	.	.	.	.	.	.	.	.	.	16gg\
.	.	.	.	.	.	.	.	.	.	.	.	16ff#\JJ
4E\	.	4g/	16r	.	.	.	.	.	.	.	.	4ee\
.	.	.	16b\LL	.	.	.	.	.	.	.	.	.
.	.	.	16cc#\	.	.	.	.	.	.	.	.	.
.	.	.	16dd\JJ	.	.	.	.	.	.	.	.	.
4G#X\	6	4b/	16ee\LL	.	.	.	.	.	.	.	.	4r
.	.	.	16ff#\	.	.	.	.	.	.	.	.	.
.	.	.	16dd\	.	.	.	.	.	.	.	.	.
.	.	.	16ee\JJ	.	.	.	.	.	.	.	.	.
=9	=9	=9	=9	=9	=9	=9	=9	=9	=9	=9	=9	=9
4A\	.	4a/	4cc#\	0r	.	0r	.	0r	.	0r	.	16r
.	.	.	.	.	.	.	.	.	.	.	.	16ee\LL
.	.	.	.	.	.	.	.	.	.	.	.	16ff#\
.	.	.	.	.	.	.	.	.	.	.	.	16gg\JJ
8r	.	8r	8r	.	.	.	.	.	.	.	.	16aa\LL
.	.	.	.	.	.	.	.	.	.	.	.	16bb\
8C#/	.	8cc#\	8ee\	.	.	.	.	.	.	.	.	16gg\
.	.	.	.	.	.	.	.	.	.	.	.	16aa\JJ
!LO:TX:t=P:problem:mixed beam	!	!	!	!	!	!	!	!	!	!	!	!
8D\L	.	8dd\L	8ff#\L	.	.	.	.	.	.	.	.	8ff#\L
8G\	.	8dd\J	16gg\L	.	.	.	.	.	.	.	.	16bb\L
.	.	.	16ff#\JJ	.	.	.	.	.	.	.	.	16ff#\JJ
8A\	.	8.dd\L	8.ee\L	.	.	.	.	.	.	.	.	8.ee\L
8AA/J	.	.	.	.	.	.	.	.	.	.	.	.
.	.	16cc#\Jk	16dd\Jk	.	.	.	.	.	.	.	.	16dd\Jk
!	!	!	!LO:LB:g=original	!	!	!	!	!	!	!	!	!LO:LB:g=original
=10	=10	=10	=10	=10	=10	=10	=10	=10	=10	=10	=10	=10
!LO:SIC:o:s=:v:dodatkowy takt w głosach wokalnych	!	!LO:SIC:o:s=:v:dodatkowy takt w głosach wokalnych	!LO:SIC:o:s=:v:dodatkowy takt w głosach wokalnych	!LO:SIC:o:s=:v:dodatkowy takt w głosach wokalnych	!LO:SIC:o:s=:v:dodatkowy takt w głosach wokalnych	!LO:SIC:o:s=:v:dodatkowy takt w głosach wokalnych	!LO:SIC:o:s=:v:dodatkowy takt w głosach wokalnych	!LO:SIC:o:s=:v:dodatkowy takt w głosach wokalnych	!LO:SIC:o:s=:v:dodatkowy takt w głosach wokalnych	!	!LO:SIC:o:s=:v:dodatkowy takt w głosach wokalnych	!LO:SIC:o:s=:v:dodatkowy takt w głosach wokalnych
1ryy	.	1ryy	1ryy	.	.	.	.	.	.	.	.	1ryy
=11	=11	=11	=11	=11	=11	=11	=11	=11	=11	=11	=11	=11
!	!	!	!	!	!	!	!	!	!	!	!	!LO:TX:b:t=Tutti
!LO:TX:b:t=tutti	!	!LO:TX:b:t=Plaudite ſidera	!LO:TX:b:t=Plaudite ſidera	!LO:TX:a:t=Tutti	!	!	!	!	!	!LO:TX:a:t=Tutti	!	!LO:TX:b:t=Plaudite ſidera
4D/	.	4dd\	4dd\	8.D\	Plau-	8.A\	Plau-	8.f#\	Plau-	8.dd\	Plau-	4dd\
.	.	.	.	16D\	-di-	16A\	-di-	16f#\	-di-	16dd\	-di-	.
4D/	.	4r	4r	4D\	-te	4A\	-te	4f#\	-te	4dd\	-te	4r
!	!	!LO:N:vis=16	!	!	!	!	!	!	!	!	!	!
4A\	.	8r	16r	8.A\	ſi-	8.c#\	ſi-	8.a\	ſi-	8.ee\	ſi-	16r
.	.	.	16ee\LL	.	.	.	.	.	.	.	.	16ee\LL
.	.	8cc#\L	16ff#\	.	.	.	.	.	.	.	.	16ff#\
.	.	.	16gg\JJ	16A\	-de-	16c#\	-de-	16a\	-de-	16ee\	-de-	16gg\JJ
4AA/	.	8ee\	16aa\LL	4A\	-ra	4c#\	-ra	4a\	-ra	4ee\	-ra	8aa\L
.	.	.	16bb\	.	.	.	.	.	.	.	.	.
.	.	8ee\J	16gg\	.	.	.	.	.	.	.	.	8ee\J
.	.	.	16aa\JJ	.	.	.	.	.	.	.	.	.
=12	=12	=12	=12	=12	=12	=12	=12	=12	=12	=12	=12	=12
!LO:TX:t=P:problem:mixed beam	!	!	!	!	!	!	!	!	!	!	!	!
8D\L	.	8dd\L	16ff#\LL	2r	.	2r	.	2r	.	2r	.	8ff#\L
.	.	.	16gg\	.	.	.	.	.	.	.	.	.
8G\	.	8dd\	16ee\	.	.	.	.	.	.	.	.	16gg\L
.	.	.	16ff#\JJ	.	.	.	.	.	.	.	.	16ff#\JJ
8A\	.	8.dd\	8.ee\L	.	.	.	.	.	.	.	.	8.ee\L
8AA/J	.	.	.	.	.	.	.	.	.	.	.	.
.	.	16cc#\Jk	16dd\Jk	.	.	.	.	.	.	.	.	16dd\Jk
*	*	*	*	*	*ij	*	*ij	*	*ij	*	*ij	*
4D/	.	4dd\	4dd\	8.D/	Plau-	8.A\	Plau-	8.f#\	Plau-	8.dd\	Plau-	4dd\
.	.	.	.	16D/	-di-	16A\	-di-	16f#\	-di-	16dd\	-di-	.
4D/	.	4r	4r	4D/	-te	4A\	-te	4f#\	-te	4dd\	-te	4r
!LO:LB:g=original	!	!	!	!	!	!	!	!	!	!	!	!
=13	=13	=13	=13	=13	=13	=13	=13	=13	=13	=13	=13	=13
4A\	.	4cc#\	4ee\	8.A\	ſi-	8.c#\	ſi-	8.a\	ſi-	8.ee\	ſi-	4ee\
.	.	.	.	16A\	-de-	16c#\	-de-	16a\	-de-	16ee\	-de-	.
8A\L	.	8ee\L	8aa\L	8A\	-ra	8c#\	-ra	8a\	-ra	8ee\	-ra	8ee\L
*	*	*	*	*	*Xij	*	*Xij	*	*Xij	*	*Xij	*
8F#\J	6	8ff#\J	8aa\J	8F#\	I	8d\	I	8a\	I	8dd\	I	8ff#\J
8G\L	.	8dd\L	8bb\L	8G\	o-	8B\	-o-	8g\	o-	8dd\	o-	8dd\L
8A\J	.	8dd\J	8aa\J	8A\	-per	8c#\	-per	8a\	-per	8dd\	-per	8dd\
!	!	!LO:LB:g=original	!	!	!	!	!	!	!	!	!	!
4B\	7	8.dd\L	8.aa\L	8.B\	(ae)-	8.B\	(ae)-	8.a\	(ae)-	8.dd\	(ae)-	8.dd\
!	!	!	!LO:SIC:o:s=:v:krzyżyk nad pięciolinią	!	!	!	!	!	!	!	!	!
.	6	16cc#\Jk	16gg#X\Jk	16B\	-ther-	16B\	-ther-	16g#X\	-ther-	16cc#\	-ther-	16ee\Jk
!	!	!	!	!LO:LB:g=original	!	!LO:LB:g=original	!	!LO:LB:g=original	!	!	!	!
=14	=14	=14	=14	=14	=14	=14	=14	=14	=14	=14	=14	=14
4A\	.	8cc#\L	8aa\L	4A\	-ra	4E/	-ra	4a\	-ra	4dd\	-ra	8.ff#\L
.	.	8ee\J	16aa\L	.	.	.	.	.	.	.	.	.
.	.	.	16gg\JJ	.	.	.	.	.	.	.	.	16ee\Jk
8r	.	8dd\L	8ff#\L	8r	.	8r	.	8r	.	8r	.	8ff#\L
8F#\	6	8ff#\J	8aa\	8F#\	I	8f#\	I	8a\	I	8dd\	I	8dd\J
!	!	!	!	!	!	!	!	!	!	!LO:LB:g=original	!	!
8G\L	6 5	8ee\L	8bb\	8G\	o-	8e\	o-	8b\	o-	8dd\	o-	8ee\L
8D\J	.	8ff#\J	8aa\J	8D/	-per	8f#\	-per	8b\	-per	8dd\	-per	8ff#\
!LO:TX:t=P:problem:mixed beam	!	!	!	!	!	!	!	!	!	!	!	!
8A\L	4	8.ee\L	8.aa\L	8.A\	(ae)-	8.e\	-(ae)-	8.b\	(ae)-	8.dd\	(ae)-	8.ee\
.	3	.	.	.	.	.	.	.	.	.	.	.
8AA/J	#	.	.	.	.	.	.	.	.	.	.	.
.	.	16ee\Jk	16aa\Jk	16A\	-ther-	16e\	-ther-	16a\	-ther-	16cc#\	-ther-	16dd\Jk
!	!	!	!	!	!	!	!	!	!	!	!	!LO:LB:g=original
=15	=15	=15	=15	=15	=15	=15	=15	=15	=15	=15	=15	=15
!	!	!LO:TX:t=P:problem:mixed beam	!	!	!	!	!	!	!	!	!	!
4D/	.	8ff#\L	8aa\L	4D/	-ra	4d\	-ra	4a\	-ra	4dd\	-ra	8dd\L
.	.	8a/	8dd\J	.	.	.	.	.	.	.	.	8dd\
!	!	!	!LO:LB:g=original	!	!	!	!	!	!	!	!	!
4r	.	8a/	8dd\L	4r	.	4r	.	4r	.	4r	.	8dd\
.	.	8a/J	8dd\J	.	.	.	.	.	.	.	.	8dd\J
8r	.	8ee\L	8gg\L	2r	.	2r	.	2r	.	2r	.	8gg\L
!LO:TX:b:i:t=Solo	!	!	!	!	!	!	!	!	!	!	!	!
8E\L	.	8ee\J	8gg\J	.	.	.	.	.	.	.	.	8gg\J
8E\	.	16ee\LL	16gg\LL	.	.	.	.	.	.	.	.	16gg\LL
.	.	16ff#\	16aa\	.	.	.	.	.	.	.	.	16aa\
8E\J	.	16ee\	16gg\	.	.	.	.	.	.	.	.	16gg\
.	.	16dd\JJ	16ff#\JJ	.	.	.	.	.	.	.	.	16ff#\JJ
=16	=16	=16	=16	=16-	=16	=16	=16	=16	=16	=16	=16	=16
16A\LL	.	8cc#\L	8ee\L	0r	.	0r	.	0r	.	0r	.	8ee\L
16G\	.	.	.	.	.	.	.	.	.	.	.	.
16A\	.	8cc#\	8ee\	.	.	.	.	.	.	.	.	8a-\J
16B\JJ	.	.	.	.	.	.	.	.	.	.	.	.
16A\LL	.	8cc#\	8ee\	.	.	.	.	.	.	.	.	8ff#\L
16B\	.	.	.	.	.	.	.	.	.	.	.	.
16A\	.	8cc#\J	8ee\J	.	.	.	.	.	.	.	.	8ee\J
16G\JJ	.	.	.	.	.	.	.	.	.	.	.	.
8F#\L	.	8ff#\L	8aa\L	.	.	.	.	.	.	.	.	8aa\L
8F#\	.	8ff#\J	8aa\J	.	.	.	.	.	.	.	.	8aa\J
8F#\	.	16ff#\LL	16aa\LL	.	.	.	.	.	.	.	.	16aa\LL
.	.	16gg\	16bb\	.	.	.	.	.	.	.	.	16bb\
8F#\J	.	16ff#\	16aa\	.	.	.	.	.	.	.	.	16aa\
.	.	16ee\JJ	16gg\JJ	.	.	.	.	.	.	.	.	16gg\JJ
!LO:LB:g=original	!	!	!	!	!	!	!	!	!	!	!	!
=17	=17	=17	=17	=17	=17	=17	=17	=17	=17	=17	=17	=17
16B\LL	.	4dd\	4ff#\	.	.	.	.	.	.	.	.	4ff#\
16A\	.	.	.	.	.	.	.	.	.	.	.	.
16B\	.	.	.	.	.	.	.	.	.	.	.	.
16c#\JJ	.	.	.	.	.	.	.	.	.	.	.	.
16B\LL	.	8r	8r	.	.	.	.	.	.	.	.	8r
16A\	.	.	.	.	.	.	.	.	.	.	.	.
16G\	6	8ee\	8bb\	.	.	.	.	.	.	.	.	8ee\
16F#\JJ	.	.	.	.	.	.	.	.	.	.	.	.
8E\L	.	8cc#\L	8gg\L	.	.	.	.	.	.	.	.	16ee\LL
.	.	.	.	.	.	.	.	.	.	.	.	16ff#\
8D\J	6	8dd\	16ff#\L	.	.	.	.	.	.	.	.	16ee\
.	.	.	16gg\JJ	.	.	.	.	.	.	.	.	16dd\JJ
!LO:TX:t=P:problem:mixed beam	!	!	!	!	!	!	!	!	!	!	!	!
8A\L	.	8.dd\	8.ee\L	.	.	.	.	.	.	.	.	(8ff#\L
8AA/J	4	.	.	.	.	.	.	.	.	.	.	16ee\L
.	3	16cc#\Jk	16ee\Jk	.	.	.	.	.	.	.	.	16dd\JJ)
=18	=18	=18	=18	=18	=18	=18	=18	=18-	=18	=18-	=18	=18
!LO:TX:b:t=tutti	!	!	!LO:TX:b:t=Tutti	!	!	!	!	!	!	!	!	!
4D/	.	4dd\	4dd\	8.D/	Plau-	8.A\	Plau-	8.f#\	-Plau-	8.dd\	-Plau-	4dd\
.	.	.	.	16D/	-di-	16A\	-di-	16f#\	-di-	16dd\	-di-	.
4D/	.	4r	4r	4D/	-te	4A\	-te	4f#\	-te	4dd\	-te	4r
!	!	!LO:LB:g=original	!	!	!	!	!	!	!	!	!	!
4A\	.	8.cc#\L	8.ee\L	8.A\	ſi-	8.c#\	ſi-	8.a\	ſi-	8.ee\	ſi-	8r
!	!	!	!	!	!	!	!	!	!	!	!	!LO:LB:g=original
.	.	.	.	.	.	.	.	.	.	.	.	8aa\L
.	.	16ee\K	16aa\K	16A\	-de-	16c#\	-de-	16a\	-de-	16ee\	-de-	.
4AA/	.	8ee\	8aa\	4A\	-ra	4c#\	-ra	4a\	-ra	4ee\	-ra	8aa\
.	.	8ee\J	8aa\J	.	.	.	.	.	.	.	.	8aa\J
=19	=19	=19	=19	=19	=19	=19	=19	=19	=19	=19	=19	=19
4D/	.	16dd\LL	16ff#\LL	4r	.	4r	.	4r	.	4r	.	16ff#\LL
.	.	16cc#\	16ee\	.	.	.	.	.	.	.	.	16ee\
.	.	16dd\	16ff#\	.	.	.	.	.	.	.	.	16ff#\
.	.	16ee\JJ	16gg\JJ	.	.	.	.	.	.	.	.	16gg\JJ
!	!	!	!LO:LB:g=original	!	!	!	!	!	!	!	!	!
8r	.	8ff#\L	8aa\L	8r	.	8r	.	8r	.	8r	.	8aa\L
8F#\	6	8dd\J	8ff#\J	8E\	I	8f#\	I	8a\	I	8dd\	I	8ff#\J
!LO:TX:t=P:problem:mixed beam	!	!	!	!	!	!	!	!	!	!	!	!
8B\L	6	8gg\L	8bb\L	8B\	o-	8B\	o-	8g\	o-	8dd\	o-	8gg\L
8G\	.	8gg\J	8bb\	8G\	-per	8d\	-per	8g\	-per	8dd\	-per	16gg\L
.	.	.	.	.	.	.	.	.	.	.	.	16ff#\JJ
!	!	!	!	!LO:LB:g=original	!	!LO:LB:g=original	!	!	!	!	!	!
!	!	!	!	!LO:TX:t=P:problem:mixed beam	!	!	!	!	!	!	!	!
8A\	.	8.ee\L	8.aa\	8A\L	(ae)-	8.A\	(ae)-	8.e\	(ae)-	8.dd\	(ae)-	8.ee\L
8AA/J	.	.	.	8AA/J	.	.	.	.	.	.	.	.
.	.	16ee\Jk	16aa\Jk	.	.	16A\	-ther-	16e\	-ther-	16cc#\	-ther-	16dd\Jk
!	!	!	!	!	!	!	!	!LO:LB:g=original	!	!LO:LB:g=original	!	!
=20	=20	=20	=20	=20	=20	=20	=20	=20	=20	=20	=20	=20
8D\L	.	8dd\L	8ff#\L	8D/	-ther-	8A\	-ra	8f#\	-ra	8dd\	-ra	8ee\L
8GG/	.	8ee\J	8gg\J	8GG/	-ra	8B\	/per	8g\	per	8ee\	(ae)-	8gg\J
8.AA/	.	8.cc#\L	8.ee\L	8.AA/	(ae)-	8.A\	(ae)-	8.e\	(ae)-	8.cc#\	-ther-	8.ee\L
16AA/Jk	.	16cc#\Jk	16ee\Jk	16AA/	-ther-	16A\	-ther-	16e\	-ther-	16cc#\	.	16ee\Jk
4D/	.	4dd\	4ff#\	4D/	-ra	4A\	-ra/	4f#\	-ra	4dd\	-ra	4dd\
4r	.	4r	4r	4r	.	4r	.	4r	.	4r	.	4r
!LO:LB:g=original	!	!	!	!	!	!	!	!	!	!	!	!
=21	=21	=21	=21	=21	=21	=21	=21	=21-	=21	=21	=21	=21
!LO:TX:b:i:t=Solo	!	!	!	!	!	!	!	!	!	!	!	!
8D\L	.	4dd\	4ff#\	4r	.	1r	.	1r	.	8r	.	4dd\
8E\	.	.	.	.	.	.	.	.	.	8a\	-Da-	.
8F#\	.	8r	8r	4r	.	.	.	.	.	8a\	-te	8r
8E\J	.	8dd\	8ff#\	.	.	.	.	.	.	8a\	ſo-	8dd\
8F#\L	6	4a/	4dd\	8r	.	.	.	.	.	16dd\LL	-len-	4ff#\
.	.	.	.	.	.	.	.	.	.	16cc#\	.	.
8E\J	.	.	.	8D/	Da-	.	.	.	.	16dd\	.	.
.	.	.	.	.	.	.	.	.	.	16ee\JJ	.	.
8F#\L	.	8r	8r	8D/	-te	.	.	.	.	8.dd\	-ni-	8r
8D\J	.	8a/	8dd\	8D/	ſo-	.	.	.	.	.	.	8dd\
.	.	.	.	.	.	.	.	.	.	16cc#\	-a	.
!	!	!	!	!	!	!	!	!	!	!	!	!LO:LB:g=original
=22	=22	=22	=22	=22	=22	=22-	=22	=22	=22	=22	=22	=22
!LO:TX:b:t=tutti	!	!	!LO:TX:b:i:t=Dolce	!	!	!	!	!	!	!	!	!
8G\L	.	4ee\	4gg\	16G\LL	-len-	2r	.	8r	.	8b\	Tri-	4gg\
.	.	.	.	16F#\	.	.	.	.	.	.	.	.
8A\	.	.	.	16G\	.	.	.	8d\	-Da-	8b\	-um-	.
.	.	.	.	16A\JJ	.	.	.	.	.	.	.	.
8G\	.	8r	8r	8.G\	-ni-	.	.	8d\	-te	8b\	-phent	8r
8F#\J	.	8ee\	8gg\	.	.	.	.	8d\	ſo-	8b\	.	8gg\
.	.	.	.	16F#\	-a	.	.	.	.	.	.	.
8E\L	.	4b/	4ee\	8E\	Tri-	8r	.	16g\LL	-len-	16ee\LL	o-	4ee\
.	.	.	.	.	.	.	.	16f#\	.	16dd\	.	.
8F#\	.	.	.	8E\	-um-	8G/	-Da-	16g\	.	16ee\	.	.
.	.	.	.	.	.	.	.	16a\JJ	.	16ff#\JJ	.	.
8G\	.	8r	8r	8E\	-phent	8G/	-te	8.g\	-ni-	8.ee\	-mni-	8r
8E\J	.	8b/	8ee\	8E\	.	8G/	ſo-	.	.	.	.	8ee\
.	.	.	.	.	.	.	.	16f#\	-a	16dd\	.	.
!	!	!	!	!LO:LB:g=original	!	!	!	!	!	!LO:LB:g=original	!	!
=23	=23	=23	=23	=23	=23	=23	=23	=23	=23	=23	=23	=23
8A\L	.	4cc#\	4aa\	16A\LL	O-	16c#\LL	-len-	8.e\	Tri-	8cc#\	-a	4ee\
.	.	.	.	16G\	.	16B\	.	.	.	.	.	.
8B\	.	.	.	16A\	.	16c#\	.	.	.	8cc#\	Tri-	.
.	.	.	.	16B\JJ	.	16d\JJ	.	16e\	-um-	.	.	.
8A\	.	8r	8r	8.A\	-mni-	8.c#\	-ni-	8e\	-phent	8cc#\	-um-	8r
8G\J	.	8cc#\	8aa\	.	.	.	.	8e\	.	8cc#\	-phent	8ee\
.	.	.	.	16G\	-a	16B\	-a	.	.	.	.	.
8F#\L	.	4dd\	4ff#\	8F#\	/Tri-	8A\	Tri-	16a\LL	O-	16ff#\LL	O-	4dd\
.	.	.	.	.	.	.	.	16g\	.	16ee\	.	.
8G\	.	.	.	8F#\	-um-	8A\	-um-	16a\	.	16ff#\	.	.
.	.	.	.	.	.	.	.	16b\JJ	.	16gg\JJ	.	.
!	!	!	!	!	!	!	!	!LO:LB:g=original	!	!	!	!
8A\	.	8r	8r	8F#\	-phent	8A\	-phent	16a\LL	.	16ff#\LL	.	8r
.	.	.	.	.	.	.	.	16b\	.	16gg\	.	.
8F#\J	.	8dd\	8ff#\	8F#\	.	8A\	.	16a\	.	16ff#\	.	8ff#\
.	.	.	.	.	.	.	.	16g\JJ	.	16ee\JJ	.	.
!	!	!LO:LB:g=original	!LO:LB:g=original	!	!	!LO:LB:g=original	!	!	!	!	!	!
=24	=24	=24	=24	=24	=24	=24	=24	=24	=24	=24	=24	=24
!LO:TX:t=P:problem:mixed beam	!	!	!	!	!	!	!	!	!	!	!	!
8B\L	.	4dd\	16gg\LL	8B\L	O-	4B\	-o-	8f#\L	.	8dd\	.	8ee\L
.	.	.	16aa\	.	.	.	.	.	.	.	.	.
8G\	.	.	16ff#\	8G\J	.	.	.	16g\L	.	16dd\	-mni-	16ff#\L
.	.	.	16gg\JJ	.	.	.	.	16f#\JJ	.	16dd\	-a	16ee\JJ
8A\	.	8.dd\L	8.ee\L	8.A\	-mni-	8.A\	-mni-	8.e\	.	8.dd\	-O-	8ff#\L
8AA/J	.	.	.	.	.	.	.	.	.	.	.	16ee\L
.	.	16cc#\Jk	16ee\Jk	16AA/	.	16A\	-a	16e\	-mni-	16cc#\	-mni-	16dd\JJ
!LO:TX:b:i:t=Solo	!	!	!	!	!	!	!	!	!	!	!	!
8D\L	.	4dd\	4ff#\	4D/	-a/	8A\	Da-	4e\	-a	8dd\	-a	4dd\
8E\	.	.	.	.	.	8F#/	.	.	.	8a\	Da-	.
8F#\	.	4r	4r	4r	.	8F#/	-te	4r	.	8a\	-te	4r
8D\J	.	.	.	.	.	8F#/	ſo-	.	.	8a\	ſo-	.
!LO:LB:g=original	!	!	!	!	!	!	!	!	!	!	!	!
=25	=25	=25	=25	=25	=25	=25	=25	=25	=25	=25	=25	=25
8BB/L	.	0r	0r	0r	.	16B\LL	-len-	0r	.	16dd\LL	-len-	0r
.	.	.	.	.	.	16A\	.	.	.	16cc#\	.	.
8C#/	.	.	.	.	.	16B\	.	.	.	16dd\	.	.
.	.	.	.	.	.	16c#\JJ	.	.	.	16ee\JJ	.	.
!	!	!	!	!	!	!	!	!	!	!LO:LB:g=original	!	!
8D\	.	.	.	.	.	8.B\	-ni-	.	.	8.dd\	-ni-	.
8BB/J	.	.	.	.	.	.	.	.	.	.	.	.
.	.	.	.	.	.	16A\	-a	.	.	16cc#\	-a	.
8E\L	#	.	.	.	.	8G/	Da-	.	.	8b\	Tri-	.
8F#\	.	.	.	.	.	8G/	-te	.	.	8b\	-um-	.
8E\	.	.	.	.	.	8G/	ſo-	.	.	8b\	-phent	.
8D\J	.	.	.	.	.	8G/	-len-	.	.	8b\	.	.
=26	=26	=26	=26	=26	=26	=26	=26	=26	=26	=26	=26	=26
!LO:SIC:o:s=:v:nadprogramowa pauza w violino primo i secundo	!	!LO:SIC:o:s=:v:nadprogramowa pauza w violino primo i secundo	!	!LO:SIC:o:s=:v:nadprogramowa pauza w violino primo i secundo	!	!LO:SIC:o:s=:v:nadprogramowa pauza w violino primo i secundo	!	!LO:SIC:o:s=:v:nadprogramowa pauza w violino primo i secundo	!	!LO:SIC:o:s=:v:nadprogramowa pauza w violino primo i secundo	!	!LO:SIC:o:s=:v:nadprogramowa pauza w violino primo i secundo
1ryy	.	.	.	.	.	1ryy	.	.	.	1ryy	.	.
=27	=27	=27-	=27	=27	=27	=27	=27	=27	=27	=27	=27	=27-
8C#/L	.	4ff#\	4aa\	1ryy	.	16c#\LL	.	1ryy	.	(16ee\LL	O-	4aa\
.	.	.	.	.	.	16B\	.	.	.	16dd\	.	.
8BB/	.	.	.	.	.	16c#\	.	.	.	16ee\	.	.
.	.	.	.	.	.	16d\JJ	.	.	.	16ff#\JJ)	.	.
8C#/	.	8r	8r	.	.	16c#\LL	.	.	.	16ee\LL	.	8r
.	.	.	.	.	.	16d\	.	.	.	16ff#\	.	.
8AA/J	.	8ff#\	8aa\L	.	.	16c#\	.	.	.	16ee\	.	8aa\
.	.	.	.	.	.	16B\JJ	.	.	.	16dd\JJ	.	.
!	!	!	!	!	!	!LO:LB:g=original	!	!	!	!	!	!
8C#/L	.	4gg\	8bb\	.	.	8A\L	.	.	.	16cc#\LL	.	4bb\
.	.	.	.	.	.	.	.	.	.	16ee\	.	.
8D\	.	.	8bb\J	.	.	16B\L	.	.	.	16dd\	.	.
.	.	.	.	.	.	16A\JJ	.	.	.	16cc#\JJ	.	.
8E\	.	8r	8r	.	.	8.A\	-ni-	.	.	8.b\	.	8r
8EE/J	.	8gg\	8bb\	.	.	.	.	.	.	.	.	8gg\
.	.	.	.	.	.	16G#X/	-a	.	.	16b\	-mni-	.
=28	=28	=28	=28	=28	=28	=28	=28	=28-	=28	=28	=28	=28
!LO:TX:b:t=tutti	!	!	!	!	!	!	!	!	!	!	!	!
8D\L	.	4ee\	4gg\	8r	.	8A/	.	2r	.	4a\	-a	4ee\
8E\	.	.	.	8D/	Da-	8F#/	Da-	.	.	.	.	.
8F#\	.	8r	8r	8D/	-te	8F#/	-te	.	.	4r	.	8r
8D\J	.	8ee\	8gg\	8D/	ſo-	8F#/	ſo-	.	.	.	.	8ee\
!	!	!	!	!	!	!	!	!	!	!LO:LB:g=original	!	!
8G\L	.	4ee\	4aa\	16G\LL	-len-	16B\LL	-len-	8r	.	8r	.	4ee\
.	.	.	.	16F#\	.	16A\	.	.	.	.	.	.
8A\	.	.	.	16G\	.	16B\	.	8d\	Da-	8b\	Da-	.
.	.	.	.	16A\JJ	.	16c#\JJ	.	.	.	.	.	.
!	!	!	!	!LO:LB:g=original	!	!	!	!	!	!	!	!LO:LB:g=original
8G\	.	8r	8r	8.G\	-ni-	8.B\	-ni-	8d\	-te	8b\	-te	8r
8F#\J	.	8cc#\	8ee\	.	.	.	.	8d\	ſo-	8b\	ſo-	8ee\
.	.	.	.	16F#\	-a	16A\	-a	.	.	.	.	.
=29	=29	=29	=29	=29	=29	=29	=29	=29	=29	=29	=29	=29
8E\L	.	4dd\	4ff#\	8E\	Tri-	8G/	Da-	16g\LL	-len-	16ee\LL	-len-	4ff#\
.	.	.	.	.	.	.	.	16f#\	.	16dd\	.	.
8F#\	.	.	.	8E\	-um-	8G/	-te	16g\	.	16ee\	.	.
.	.	.	.	.	.	.	.	16a\JJ	.	16ff#\JJ	.	.
8G\	.	8r	8r	8E\	-phent	8G/	ſo-	8.g\	-ni-	8.ee\	-ni-	8r
8F#\J	.	8ff#\	8aa\	8E\	.	8G/	.	.	.	.	.	8ff#\
.	.	.	.	.	.	.	.	16f#\	-a	16dd\	-a	.
8A\L	.	8ee\L	8gg\L	16A\LL	-o-	16c#\LL	-len-	8e\	.	8cc#\	-Tri-	16gg\LL
.	.	.	.	16G\	.	16B\	.	.	.	.	.	16aa\
8B\	.	16ee\L	16gg\L	16A\	.	16c#\	.	8e\	.	8cc#\	-um-	16ff#\
.	.	16dd\JJ	16ff#\JJ	16B\JJ	.	16d\JJ	.	.	.	.	.	16gg\JJ
!	!	!	!	!	!	!LO:LB:g=original	!	!	!	!	!	!
8A\	.	8.dd\L	8.ee\L	8.A\L	-mni-	8.c#\	-ni-	8e\	.	8cc#\	-phent	8.ee\L
8G\J	.	.	.	.	.	.	.	8e\	.	8cc#\	.	.
.	.	16cc#\Jk	16ee\Jk	16G\Jk	.	16B\	.	.	.	.	.	16ee\Jk
!	!	!	!	!	!	!	!	!LO:LB:g=original	!	!	!	!
=30	=30	=30	=30	=30	=30	=30	=30	=30	=30	=30	=30	=30
!	!	!LO:SIC:o=:v:nadmiarowy takt w organach	!LO:SIC:o=:v:nadmiarowy takt w organach	!LO:SIC:o=:v:nadmiarowy takt w organach	!	!LO:SIC:o=:v:nadmiarowy takt w organach	!	!LO:SIC:o=:v:nadmiarowy takt w organach	!	!LO:SIC:o=:v:nadmiarowy takt w organach	!	!LO:SIC:o=:v:nadmiarowy takt w organach
8F#\L	6	1ryy	1ryy	1ryy	.	1ryy	.	1ryy	.	1ryy	.	1ryy
8G\	.	.	.	.	.	.	.	.	.	.	.	.
8A\	.	.	.	.	.	.	.	.	.	.	.	.
8F#\J	.	.	.	.	.	.	.	.	.	.	.	.
!LO:LB:g=original	!	!	!	!	!	!	!	!	!	!	!	!
!LO:TX:t=P:problem:mixed beam	!	!	!	!	!	!	!	!	!	!	!	!
8B\L	.	.	.	.	.	.	.	.	.	.	.	.
8G\	.	.	.	.	.	.	.	.	.	.	.	.
8A\	.	.	.	.	.	.	.	.	.	.	.	.
8AA/J	.	.	.	.	.	.	.	.	.	.	.	.
=31	=31	=31	=31	=31	=31	=31	=31	=31	=31	=31	=31	=31
8D\L	.	4dd\	4ff#\	4F#\	-a	4A\	-a	16a\LL	-o-	16ff#\LL	O-	4dd\
.	.	.	.	.	.	.	.	16g\	.	16ee\	.	.
8E\	.	.	.	.	.	.	.	16a\	.	16ff#\	.	.
.	.	.	.	.	.	.	.	16b\JJ	.	16gg\JJ	.	.
8F#\	.	8r	8r	8r	.	8r	.	16a\LL	.	16ff#\LL	.	8r
.	.	.	.	.	.	.	.	16b\	.	16gg\	.	.
8D\J	.	8ff#\	8gg\	8F#\	/Tri-	8A\	Tri-	16a\	.	16ff#\	.	8dd\
.	.	.	.	.	.	.	.	16g\JJ	.	16ee\JJ	.	.
!LO:TX:t=P:problem:mixed beam	!	!	!	!	!	!	!	!	!	!	!	!
8G\L	.	8ee\L	8gg\L	8B\	-um-	8B\	-um-	8g\L	.	8dd\	.	16gg\LL
.	.	.	.	.	.	.	.	.	.	.	.	16aa\
8E\	.	16ee\L	16gg\L	8G\	-phent	8B\	-phent	16g\L	.	16dd\	-mni-	16ff#\
.	.	16dd\JJ	16ff#\JJ	.	.	.	.	16f#\JJ	.	16dd\	-a	16gg\JJ
!	!	!	!LO:LB:g=original	!	!	!	!	!	!	!LO:LB:g=original	!	!
8A\	.	8dd\L	8.ee\L	8.A\	o-	8.A\	o-	8.e\	.	8.dd\	o-	8.ee\L
8AA/J	.	8cc#\J	.	.	.	.	.	.	.	.	.	.
.	.	.	16ee\Jk	16AA/	-mni-	16A\	-mni-	16e\	-mni-	16cc#\	-mni-	16ee\Jk
!	!	!LO:LB:g=original	!	!	!	!	!	!	!	!	!	!
=32	=32	=32	=32	=32	=32	=32	=32	=32	=32	=32	=32	=32
4D\	.	4dd\	4ff#\	4D\	-a/	4B\	-a	4f#\	-a	4dd\	-a	4dd\
4ryy	.	4r	4ryy	4ryy	.	4r	.	4r	.	4r	.	4ryy
2ryy	.	2r	2ryy	2ryy	.	2r	.	2r	.	2r	.	2ryy
!	!	!	!	!LO:LB:g=original	!	!	!	!	!	!	!	!
=33||	=33||	=33||	=33||	=33||	=33||	=33||	=33||	=33||	=33||	=33||	=33||	=33||
*M3/2	*	*M3/2	*M3/2	*M3/2	*	*	*	*	*	*	*	*
!	!	!	!	!	!	!	!	!LO:TX:b:t=Baſso(Canto)	!	!LO:TX:b:t=Baſso	!	!
!	!	!	!	!	!	!	!	!	!	!	!	!LO:TX:b:t=Dum firmamento\n Canto Tacet
!LO:TX:b:t=Solo Baſso	!	!LO:TX:b:t=Baſso.	!LO:TX:b:t=Baſso mirentur	!LO:TX:b:i:t=solo	!	!LO:TX:a:t=Mirentur\nTacet	!	!LO:TX:a:t=Mirentur\n  Tacet	!	!LO:TX:a:t=Mirentur\n  Tacet	!	!LO:TX:a:t=Baſso\nMiremtur\nTacet
2BB/	.	1.r	1.r	2BB/	Mi-	1.ryy	.	1.ryy	.	1.ryy	.	1.ryy
*2\right	*	*	*	*	*	*	*	*	*	*	*	*
2B\	.	.	.	2D/	-ren-	.	.	.	.	.	.	.
*	*	*	*	*2\right	*	*	*	*	*	*	*	*
2A#X\	6	.	.	2F#\	-tur	.	.	.	.	.	.	.
=34	=34	=34	=34	=34	=34	=34	=34	=34	=34	=34	=34	=34
2C#/	.	4r	4r	2.BB/	An-	1.ryy	.	1.ryy	.	1.ryy	.	1.ryy
.	.	4f#/	4b/	.	.	.	.	.	.	.	.	.
2B\	.	4f#/	4b/	.	.	.	.	.	.	.	.	.
.	.	4f#/	4b/	4BB/	-ge-	.	.	.	.	.	.	.
2G\	.	4g/	4b/	2BB/	-li	.	.	.	.	.	.	.
.	.	4g/	4b/	.	.	.	.	.	.	.	.	.
=35	=35	=35	=35	=35	=35	=35	=35	=35	=35	=35	=35	=35
!	!	!	!	!LO:N:vis=0	!	!	!	!	!	!	!	!
1E\	6	4g/	4ccn\	0.r	.	1.ryy	.	1.ryy	.	1.ryy	.	1.ryy
.	n	4g/	8cc\L	.	.	.	.	.	.	.	.	.
.	.	.	8cc\J	.	.	.	.	.	.	.	.	.
.	.	4g/	4cc\	.	.	.	.	.	.	.	.	.
.	.	4g/	4cc\	.	.	.	.	.	.	.	.	.
2A\	3	4a/	4cc\	.	.	.	.	.	.	.	.	.
.	n	4a/	4cc\	.	.	.	.	.	.	.	.	.
=36	=36	=36	=36	=36	=36	=36	=36	=36	=36	=36	=36	=36
2E\	#	4g#X/	4b\	.	.	1.ryy	.	1.ryy	.	1.ryy	.	1.ryy
.	.	4b\	4ee\	.	.	.	.	.	.	.	.	.
2G\	6	4b\	4ee\	.	.	.	.	.	.	.	.	.
.	.	4b\	4ee\	.	.	.	.	.	.	.	.	.
2A#X\	6	4cc#\	4ff#\	.	.	.	.	.	.	.	.	.
.	.	4cc#\	4ff#\	.	.	.	.	.	.	.	.	.
!LO:LB:g=original	!	!	!	!	!	!	!	!	!	!	!	!
=37	=37	=37	=37	=37	=37	=37	=37	=37	=37	=37	=37	=37
4B\	.	2f#/	4dd\	1.r	.	1.ryy	.	1.ryy	.	1.ryy	.	1.ryy
4E\	6	.	4cc#\	.	.	.	.	.	.	.	.	.
*	*	*	*2\right	*	*	*	*	*	*	*	*	*
2F#\	.	2.f#/	2.cc#\	.	.	.	.	.	.	.	.	.
2FF#/	.	.	.	.	.	.	.	.	.	.	.	.
.	.	4f#/	4b\	.	.	.	.	.	.	.	.	.
=38	=38	=38	=38	=38-	=38	=38	=38	=38	=38	=38	=38	=38
2BB/	.	2f#/	2b\	2BB/	Mi-	1.ryy	.	1.ryy	.	1.ryy	.	1.ryy
2B\	.	2r	2r	2D/	-ren-	.	.	.	.	.	.	.
2F#\	#	2r	2r	2F#\	-tur	.	.	.	.	.	.	.
=39	=39	=39-	=39-	=39	=39	=39	=39	=39	=39	=39	=39	=39
!	!	!LO:N:vis=00	!LO:N:vis=00	!	!	!	!	!	!	!	!	!
4BB/	.	00.r	00.r	2.BB/	An-	1.ryy	.	1.ryy	.	1.ryy	.	1.ryy
4AA/	.	.	.	.	.	.	.	.	.	.	.	.
4BB/	.	.	.	.	.	.	.	.	.	.	.	.
4C#/	.	.	.	4BB/	-ge-	.	.	.	.	.	.	.
4BB/	.	.	.	2BB/	-li	.	.	.	.	.	.	.
4AA/	.	.	.	.	.	.	.	.	.	.	.	.
=40	=40	=40	=40	=40	=40	=40	=40	=40	=40	=40	=40	=40
1GG/	.	.	.	4B\	Psal-	1.ryy	.	1.ryy	.	1.ryy	.	1.ryy
.	.	.	.	4A\	.	.	.	.	.	.	.	.
.	.	.	.	4B\	.	.	.	.	.	.	.	.
.	.	.	.	4c#\	.	.	.	.	.	.	.	.
2GG/	.	.	.	4B\	.	.	.	.	.	.	.	.
.	.	.	.	4A\	.	.	.	.	.	.	.	.
!	!	!	!	!LO:LB:g=original	!	!	!	!	!	!	!	!
=41	=41	=41	=41	=41	=41	=41	=41	=41	=41	=41	=41	=41
4E\	.	.	.	1G\	.	1.ryy	.	1.ryy	.	1.ryy	.	1.ryy
4D\	.	.	.	.	.	.	.	.	.	.	.	.
4E\	.	.	.	.	.	.	.	.	.	.	.	.
4F#\	.	.	.	.	.	.	.	.	.	.	.	.
4E\	.	.	.	2E\	-lent	.	.	.	.	.	.	.
4D\	.	.	.	.	.	.	.	.	.	.	.	.
=42	=42	=42	=42	=42	=42	=42	=42	=42	=42	=42	=42	=42
1C#/	6	.	.	4A\	Psal-	1.ryy	.	1.ryy	.	1.ryy	.	1.ryy
.	.	.	.	4G\	.	.	.	.	.	.	.	.
.	.	.	.	4A\	.	.	.	.	.	.	.	.
.	.	.	.	4B\	.	.	.	.	.	.	.	.
2C#/	.	.	.	4A\	.	.	.	.	.	.	.	.
.	.	.	.	4G\	.	.	.	.	.	.	.	.
=43	=43	=43	=43	=43	=43	=43	=43	=43	=43	=43	=43	=43
!	!	!LO:N:vis=0	!LO:N:vis=0	!	!	!	!	!	!	!	!	!
4D\	.	0.r	0.r	1F#\	.	1.ryy	.	1.ryy	.	1.ryy	.	1.ryy
4C#\	.	.	.	.	.	.	.	.	.	.	.	.
4D\	.	.	.	.	.	.	.	.	.	.	.	.
4E\	.	.	.	.	.	.	.	.	.	.	.	.
4F#\	.	.	.	2D\	-lent	.	.	.	.	.	.	.
4E\	.	.	.	.	.	.	.	.	.	.	.	.
!LO:LB:g=original	!	!	!	!	!	!	!	!	!	!	!	!
=44	=44	=44	=44	=44	=44	=44	=44	=44	=44	=44	=44	=44
2G\	.	.	.	2G\	/Psal-	1.ryy	.	1.ryy	.	1.ryy	.	1.ryy
2A\	.	.	.	2A\	-lent/	.	.	.	.	.	.	.
2AA/	.	.	.	2AA/	Ar-	.	.	.	.	.	.	.
!	!	!	!LO:LB:g=original	!	!	!	!	!	!	!	!	!
=45	=45	=45	=45	=45	=45	=45	=45	=45	=45	=45	=45	=45
1D\	.	4ff#\	4aa\	2.D/	-chan-	1.ryy	.	1.ryy	.	1.ryy	.	1.ryy
.	.	4ee\	4gg\	.	.	.	.	.	.	.	.	.
.	.	4ff#\	4aa\	.	.	.	.	.	.	.	.	.
.	.	4gg\	4bb\	4D/	-ge-	.	.	.	.	.	.	.
2D/	.	4ff#\	4aa\	2D/	-li	.	.	.	.	.	.	.
.	.	4ee\	4gg\	.	.	.	.	.	.	.	.	.
!	!	!LO:LB:g=original	!	!	!	!	!	!	!	!	!	!
=46	=46	=46	=46	=46	=46	=46	=46	=46	=46	=46	=46	=46
*	*	*2\right	*	*	*	*	*	*	*	*	*	*
!	!	!	!	!LO:N:vis=00	!	!	!	!	!	!	!	!
4B\	.	2.dd\	2.ff#\	00.r	.	1.ryy	.	1.ryy	.	1.ryy	.	1.ryy
4A\	.	.	.	.	.	.	.	.	.	.	.	.
4B\	.	.	.	.	.	.	.	.	.	.	.	.
4c#\	.	4cc#\	4ee\	.	.	.	.	.	.	.	.	.
4B\	.	2b\	2dd\	.	.	.	.	.	.	.	.	.
4A\	.	.	.	.	.	.	.	.	.	.	.	.
=47	=47	=47	=47	=47	=47	=47	=47	=47	=47	=47	=47	=47
2.G\	6	4ee\	4gg\	.	.	1.ryy	.	1.ryy	.	1.ryy	.	1.ryy
.	.	4dd\	4ff#\	.	.	.	.	.	.	.	.	.
.	.	4ee\	4gg\	.	.	.	.	.	.	.	.	.
4F#\	.	4ff#\	4aa\	.	.	.	.	.	.	.	.	.
2E\	.	4ee\	4gg\	.	.	.	.	.	.	.	.	.
.	.	4dd\	4ff#\	.	.	.	.	.	.	.	.	.
=48	=48	=48	=48	=48	=48	=48	=48	=48	=48	=48	=48	=48
4A\	.	2.cc#\	2.ee\	.	.	1.ryy	.	1.ryy	.	1.ryy	.	1.ryy
4G\	.	.	.	.	.	.	.	.	.	.	.	.
4A\	.	.	.	.	.	.	.	.	.	.	.	.
4B\	.	4b/	4dd\	.	.	.	.	.	.	.	.	.
4A\	.	2a/	2cc#\	.	.	.	.	.	.	.	.	.
4G\	.	.	.	.	.	.	.	.	.	.	.	.
=49	=49	=49	=49	=49	=49	=49	=49	=49	=49	=49	=49	=49
2.F#\	.	4ff#\	4aa\	.	.	1.ryy	.	1.ryy	.	1.ryy	.	1.ryy
.	.	4ee\	4gg\	.	.	.	.	.	.	.	.	.
.	.	4ff#\	4aa\	.	.	.	.	.	.	.	.	.
4E\	.	4gg\	4bb\	.	.	.	.	.	.	.	.	.
2D\	.	4ff#\	4aa\	.	.	.	.	.	.	.	.	.
.	.	4ee\	4gg\	.	.	.	.	.	.	.	.	.
=50	=50	=50	=50	=50	=50	=50	=50	=50	=50	=50	=50	=50
4D\	.	2.dd\	2.ff#\	2r	.	1.ryy	.	1.ryy	.	1.ryy	.	1.ryy
4C#\	.	.	.	.	.	.	.	.	.	.	.	.
4D\	.	.	.	2r	.	.	.	.	.	.	.	.
4E\	.	4ee\	4gg\	.	.	.	.	.	.	.	.	.
!	!	!	!	!LO:LB:g=original	!	!	!	!	!	!	!	!
4D\	.	2ff#\	2aa\	2A\	C(ae)-	.	.	.	.	.	.	.
4C#\	.	.	.	.	.	.	.	.	.	.	.	.
!LO:PB:g=original	!	!	!	!	!	!	!	!	!	!	!	!
=51	=51	=51	=51	=51	=51	=51	=51	=51	=51	=51	=51	=51
2G\	.	4gg\	4bb\	4F#\	-le-	1.ryy	.	1.ryy	.	1.ryy	.	1.ryy
.	.	4dd\	4ff#\	4E\	.	.	.	.	.	.	.	.
2A\	.	2.dd\	2.ee\	4D\	.	.	.	.	.	.	.	.
.	.	.	.	4E\	.	.	.	.	.	.	.	.
2AA/	.	.	.	4F#\	.	.	.	.	.	.	.	.
.	.	4cc#\	4dd\	4G\	.	.	.	.	.	.	.	.
=52	=52	=52	=52	=52	=52	=52	=52	=52	=52	=52	=52	=52
2D/	.	2dd\	2dd\	2A\	-ſtis	1.ryy	.	1.ryy	.	1.ryy	.	1.ryy
2r	.	2r	2r	2A\	.	.	.	.	.	.	.	.
2D/	.	2r	2r	2d\	C(ae)-	.	.	.	.	.	.	.
!	!	!	!LO:LB:g=original	!	!	!	!	!	!	!	!	!
=53	=53	=53	=53-	=53	=53	=53	=53	=53	=53	=53	=53	=53
!	!	!LO:N:vis=00	!LO:N:vis=00	!	!	!	!	!	!	!	!	!
4C#/	.	00.r	00.r	4B\	-le-	1.ryy	.	1.ryy	.	1.ryy	.	1.ryy
4BB/	.	.	.	4G\	.	.	.	.	.	.	.	.
2AA/	.	.	.	4E\	.	.	.	.	.	.	.	.
.	.	.	.	4c#\	.	.	.	.	.	.	.	.
2F#\	6	.	.	4D/	.	.	.	.	.	.	.	.
.	.	.	.	4c#\	.	.	.	.	.	.	.	.
=54	=54	=54	=54	=54	=54	=54	=54	=54	=54	=54	=54	=54
2G\	.	.	.	2d\	-stis	1.ryy	.	1.ryy	.	1.ryy	.	1.ryy
2E\	6	.	.	2d\	.	.	.	.	.	.	.	.
2A\	.	.	.	2F#\	C(ae)-	.	.	.	.	.	.	.
=55	=55	=55	=55	=55	=55	=55	=55	=55	=55	=55	=55	=55
4D\	.	.	.	(2G\	-le-	1.ryy	.	1.ryy	.	1.ryy	.	1.ryy
4E\	.	.	.	.	.	.	.	.	.	.	.	.
2F#\	.	.	.	2E\)	.	.	.	.	.	.	.	.
2D\	.	.	.	2A\	-stis	.	.	.	.	.	.	.
=56	=56	=56	=56	=56	=56	=56	=56	=56	=56	=56	=56	=56
2G\	.	.	.	2.D/	a-	1.ryy	.	1.ryy	.	1.ryy	.	1.ryy
2A\	.	.	.	.	.	.	.	.	.	.	.	.
.	.	.	.	4D/	-qui-	.	.	.	.	.	.	.
2AA/	.	.	.	2D/	-la	.	.	.	.	.	.	.
!	!	!	!	!LO:LB:g=original	!	!	!	!	!	!	!	!
=57	=57	=57	=57	=57	=57	=57	=57	=57	=57	=57	=57	=57
!	!	!	!	!LO:N:vis=00	!	!	!	!	!	!	!	!
1D\	.	4r	4r	00.r	.	1.ryy	.	1.ryy	.	1.ryy	.	1.ryy
.	.	4ff#\	4aa\	.	.	.	.	.	.	.	.	.
.	.	4ff#\	4aa\	.	.	.	.	.	.	.	.	.
.	.	4ff#\	4aa\	.	.	.	.	.	.	.	.	.
2D\	.	4ff#\	4aa\	.	.	.	.	.	.	.	.	.
.	.	4ff#\	4aa\	.	.	.	.	.	.	.	.	.
!	!	!LO:LB:g=original	!	!	!	!	!	!	!	!	!	!
=58	=58	=58	=58	=58	=58	=58	=58	=58	=58	=58	=58	=58
1.E\	9 7	4ff#\	4aa\	.	.	1.ryy	.	1.ryy	.	1.ryy	.	1.ryy
.	.	4ee\	4gg\	.	.	.	.	.	.	.	.	.
.	.	4ee\	4gg\	.	.	.	.	.	.	.	.	.
.	- 8	4ee\	4gg\	.	.	.	.	.	.	.	.	.
.	.	4ee\	4gg\	.	.	.	.	.	.	.	.	.
.	.	4ee\	4gg\	.	.	.	.	.	.	.	.	.
=59-	=59	=59	=59	=59	=59	=59	=59	=59	=59	=59	=59	=59
1.F#\	9 7	4ee\	4ff#\	.	.	1.ryy	.	1.ryy	.	1.ryy	.	1.ryy
.	.	4dd\	4ee\	.	.	.	.	.	.	.	.	.
.	.	4dd\	2.ee\	.	.	.	.	.	.	.	.	.
.	8 6	4dd\	.	.	.	.	.	.	.	.	.	.
.	.	4dd\	.	.	.	.	.	.	.	.	.	.
.	.	4dd\	4dd\	.	.	.	.	.	.	.	.	.
!LO:LB:g=original	!	!	!	!	!	!	!	!	!	!	!	!
=60	=60	=60	=60	=60	=60	=60	=60	=60	=60	=60	=60	=60
2G\	7	2dd\	4dd\	.	.	1.ryy	.	1.ryy	.	1.ryy	.	1.ryy
.	6	.	4ff#\	.	.	.	.	.	.	.	.	.
2A\	4	2.dd\	4ff#\	.	.	.	.	.	.	.	.	.
.	3	.	4ff#\	.	.	.	.	.	.	.	.	.
2AA/	.	.	4ff#\	.	.	.	.	.	.	.	.	.
.	.	4dd\	4ff#\	.	.	.	.	.	.	.	.	.
=61	=61	=61	=61	=61	=61	=61	=61	=61	=61	=61	=61	=61
!	!	!	!	!LO:N:vis=0	!	!	!	!	!	!	!	!
2D/	.	4dd\	4ff#\	0.r	.	1.ryy	.	1.ryy	.	1.ryy	.	1.ryy
.	.	4dd\	4ee\	.	.	.	.	.	.	.	.	.
1G\	6 5	4dd\	4ee\	.	.	.	.	.	.	.	.	.
.	.	4dd\	4ee\	.	.	.	.	.	.	.	.	.
.	.	4dd\	4ee\	.	.	.	.	.	.	.	.	.
.	.	4dd\	4ee\	.	.	.	.	.	.	.	.	.
=62	=62	=62	=62	=62	=62	=62	=62	=62	=62	=62	=62	=62
2C#/	9 4	4dd\	4ee\	.	.	1.ryy	.	1.ryy	.	1.ryy	.	1.ryy
.	.	4cc#\	4dd\	.	.	.	.	.	.	.	.	.
1F#\	7 5	4cc#\	4dd\	.	.	.	.	.	.	.	.	.
.	.	4cc#\	4ee\	.	.	.	.	.	.	.	.	.
.	.	4cc#\	4ee\	.	.	.	.	.	.	.	.	.
.	.	4cc#\	4dd\	.	.	.	.	.	.	.	.	.
=63	=63	=63	=63	=63	=63	=63	=63	=63	=63	=63	=63	=63
2BB/	.	1b\	2.cc#\	1.r	.	1.ryy	.	1.ryy	.	1.ryy	.	1.ryy
1E\	7	.	.	.	.	.	.	.	.	.	.	.
.	.	.	4dd\	.	.	.	.	.	.	.	.	.
.	.	2b/	2ee\	.	.	.	.	.	.	.	.	.
!	!	!	!LO:TX:b:t=Verte Cito	!	!	!	!	!	!	!	!	!
!	!	!	!LO:PB:g=original	!	!	!	!	!	!	!	!	!
=64	=64	=64	=64	=64	=64	=64	=64	=64	=64	=64	=64	=64
2.F#\	.	2.a#X/	4dd\	2r	.	1.ryy	.	1.ryy	.	1.ryy	.	1.ryy
.	.	.	4ee\	.	.	.	.	.	.	.	.	.
.	.	.	2.cc#\	2r	.	.	.	.	.	.	.	.
4E\	.	4b/	.	.	.	.	.	.	.	.	.	.
2D\	.	2cc#/	.	2B\	C(ae)-	.	.	.	.	.	.	.
.	.	.	4b\	.	.	.	.	.	.	.	.	.
=65	=65	=65	=65	=65	=65	=65	=65	=65	=65	=65	=65	=65
!	!	!LO:N:xstem	!	!	!	!	!	!	!	!	!	!
1BB/	.	4cc#/	2b\	4A#X\	-le-	1.ryy	.	1.ryy	.	1.ryy	.	1.ryy
.	.	4b/	.	4c#\	.	.	.	.	.	.	.	.
.	.	2.b/	2r	4F#\	.	.	.	.	.	.	.	.
.	.	.	.	4G#X\	.	.	.	.	.	.	.	.
2B\	.	.	2r	4A#X\	.	.	.	.	.	.	.	.
!	!	!LO:SIC:o:s=:v:krzyżyk pod dźwiękiem	!	!	!	!	!	!	!	!	!	!
.	.	4a#X/	.	4F#\	.	.	.	.	.	.	.	.
!	!	!LO:LB:g=original	!	!	!	!	!	!	!	!	!	!
=66	=66	=66	=66	=66	=66	=66	=66	=66	=66	=66	=66	=66
2.A#X\	.	2b/	2r	2B\	-ſtis	1.ryy	.	1.ryy	.	1.ryy	.	1.ryy
.	.	2r	2r	2BB/	.	.	.	.	.	.	.	.
4F#\	.	.	.	.	.	.	.	.	.	.	.	.
4G#X\	.	2r	2ff#\	2B\	-C(ae)-	.	.	.	.	.	.	.
4A#X\	.	.	.	.	.	.	.	.	.	.	.	.
=67	=67	=67	=67	=67	=67	=67	=67	=67	=67	=67	=67	=67
2B\	.	2r	4ff#\	4A#X\	-le-	1.ryy	.	1.ryy	.	1.ryy	.	1.ryy
.	.	.	4gg\	4c#\	.	.	.	.	.	.	.	.
2BB/	.	2r	4ff#\	4F#\	.	.	.	.	.	.	.	.
.	.	.	4ee\	4G#X\	.	.	.	.	.	.	.	.
2B\	.	2cc#\	4dd\	4A#X\	.	.	.	.	.	.	.	.
.	.	.	4ee\	4F#\	.	.	.	.	.	.	.	.
=68	=68	=68	=68	=68	=68	=68	=68	=68	=68	=68	=68	=68
2.A#X\	.	4dd\	2cc#\	2B\	-ſtis	1.ryy	.	1.ryy	.	1.ryy	.	1.ryy
.	.	4ee\	.	.	.	.	.	.	.	.	.	.
.	.	4dd\	2r	2BB/	.	.	.	.	.	.	.	.
4F#\	.	4cc#\	.	.	.	.	.	.	.	.	.	.
4G#X\	.	4b\	2ff#\	2D\	-C(ae)-	.	.	.	.	.	.	.
4A#X\	.	4dd\	.	.	.	.	.	.	.	.	.	.
!LO:LB:g=original	!	!	!	!LO:PB:g=original	!	!	!	!	!	!	!	!
=69	=69	=69	=69	=69	=69	=69	=69	=69	=69	=69	=69	=69
2B\	.	2a#X/	4ff#\	1E\	-les-	1.ryy	.	1.ryy	.	1.ryy	.	1.ryy
.	.	.	4gg\	.	.	.	.	.	.	.	.	.
2AA/	.	2r	4ff#\	.	.	.	.	.	.	.	.	.
.	.	.	4ee\	.	.	.	.	.	.	.	.	.
2D\	.	2cc#\	2dd\	2E\	-tis	.	.	.	.	.	.	.
=70	=70	=70	=70	=70	=70	=70	=70	=70	=70	=70	=70	=70
1E\	7	4dd\	1cc#\	2.G\	a-	1.ryy	.	1.ryy	.	1.ryy	.	1.ryy
.	.	4ee\	.	.	.	.	.	.	.	.	.	.
.	.	4dd\	.	.	.	.	.	.	.	.	.	.
.	.	4cc#\	.	4F#\	-qui-	.	.	.	.	.	.	.
2F#\	6	2a/	2ee\	2E\	-la	.	.	.	.	.	.	.
=71-	=71	=71	=71	=71	=71	=71	=71	=71	=71	=71	=71	=71
2.G\	6	1g/	2.ee\	2E\	ex	1.ryy	.	1.ryy	.	1.ryy	.	1.ryy
.	.	.	.	2F#\	pen-	.	.	.	.	.	.	.
4F#\	.	.	4ff#\	.	.	.	.	.	.	.	.	.
2E\	.	2a/	2ff#\	2FF#/	-de	.	.	.	.	.	.	.
!	!	!	!LO:LB:g=original	!	!	!	!	!	!	!	!	!
=72	=72	=72	=72	=72	=72	=72	=72	=72	=72	=72	=72	=72
2E\	6 5	2b/	2dd\	2.BB/	bra-	1.ryy	.	1.ryy	.	1.ryy	.	1.ryy
2F#\	4	2b/	2.cc#\	.	.	.	.	.	.	.	.	.
.	.	.	.	4BB/	-hi-	.	.	.	.	.	.	.
2FF#/	.	2b/	.	2BB/	-a	.	.	.	.	.	.	.
.	.	.	4dd\	.	.	.	.	.	.	.	.	.
=73	=73	=73	=73	=73	=73	=73	=73	=73	=73	=73	=73	=73
!LO:SIC:o:s=:v:dodatkowy takt w violino secundo	!	!LO:SIC:o:s=:v:takt pominięty przez xmlowca. Dopisuję ale nie wiem co z tym zrobić.	!LO:SIC:o:s=:v:dodatkowy takt w violino secundo	!LO:SIC:o:s=:v:dodatkowy takt w violino secundo	!	!LO:SIC:o:s=:v:dodatkowy takt w violino secundo	!	!LO:SIC:o:s=:v:dodatkowy takt w violino secundo	!	!LO:SIC:o:s=:v:dodatkowy takt w violino secundo	!	!LO:SIC:o:s=:v:dodatkowy takt w violino secundo
1.ryy	.	2b/	1.ryy	1.ryy	.	1.ryy	.	1.ryy	.	1.ryy	.	1.ryy
.	.	2.b/	.	.	.	.	.	.	.	.	.	.
!	!	!LO:SIC:o:s=:v:krzyżyk pod dźwiękiem	!	!	!	!	!	!	!	!	!	!
.	.	4a#/	.	.	.	.	.	.	.	.	.	.
=74	=74	=74	=74	=74	=74	=74	=74	=74	=74	=74	=74	=74
!	!	!	!	!LO:N:vis=00	!	!	!	!	!	!	!	!
1BB/	.	1b\	1b\	00.r	.	1.ryy	.	1.ryy	.	1.ryy	.	1.ryy
2BB/	.	2dd\	[2ff#\	.	.	.	.	.	.	.	.	.
!	!	!LO:LB:g=original	!	!	!	!	!	!	!	!	!	!
=75	=75	=75	=75	=75	=75	=75	=75	=75	=75	=75	=75	=75
2D\	.	2dd\	2ff#\]	.	.	1.ryy	.	1.ryy	.	1.ryy	.	1.ryy
1G\	6 4	4cc#\	4ee\	.	.	.	.	.	.	.	.	.
.	x 3	4b\	4dd\	.	.	.	.	.	.	.	.	.
.	.	1cc#\	1ee\	.	.	.	.	.	.	.	.	.
=76	=76	=76-	=76-	=76	=76	=76	=76	=76	=76	=76	=76	=76
2C#/	.	.	.	.	.	1.ryy	.	1.ryy	.	1.ryy	.	1.ryy
1F#\	6 4	4b/	4dd\	.	.	.	.	.	.	.	.	.
!	!	!LO:SIC:o:s=:v:krzyżyk pod dźwiękiem	!	!	!	!	!	!	!	!	!	!
.	.	4a#X/	4cc#\	.	.	.	.	.	.	.	.	.
.	.	[2b/	[2dd\	.	.	.	.	.	.	.	.	.
=77	=77	=77	=77	=77	=77	=77	=77	=77	=77	=77	=77	=77
2E\	6 5	2b/]	4dd\]	.	.	1.ryy	.	1.ryy	.	1.ryy	.	1.ryy
.	.	.	4cc#\	.	.	.	.	.	.	.	.	.
2F#\	4	2.b/	2.cc#\	.	.	.	.	.	.	.	.	.
.	3	.	.	.	.	.	.	.	.	.	.	.
2FF#/	#	.	.	.	.	.	.	.	.	.	.	.
.	.	4a#X/	4cc#\	.	.	.	.	.	.	.	.	.
=78	=78	=78	=78	=78	=78	=78	=78	=78	=78	=78	=78	=78
!	!	!	!	!LO:SIC:o=:v: brak taktu	!	!	!	!	!	!	!	!
1.BB/	.	1.b\	1.b\	1.ryy	.	1.ryy	.	1.ryy	.	1.ryy	.	1.ryy
!LO:LB:g=original	!	!	!	!	!	!	!	!	!	!	!	!
=79||	=79||	=79||	=79||	=79||	=79||	=79||	=79||	=79||	=79||	=79||	=79||	=79||
*M2/2	*	*	*	*	*	*	*	*	*	*M2/2	*	*
*met(c|)	*	*	*	*	*	*	*	*	*	*met(c|)	*	*
!LO:TX:b:i:t=Solo Canto	!	!LO:TX:b:t=Canta	!	!	!	!	!	!	!	!LO:TX:b:t=Solo	!	!
!LO:TX:t=P:problem:mixed beam	!	!LO:TX:a:t=Dum firmamentum \nTacet	!LO:TX:a:t=Dum firma\n Tacet	!LO:TX:a:t=Dum firmamentum	!	!LO:TX:a:t=Dum firmament\nTacet	!	!	!	!	!	!
!	!	!	!	!LO:TX:b:t=Canto Solo	!	!	!	!	!	!	!	!
16GG/LL	.	1ryy	1ryy	1ryy	.	1ryy	.	1ryy	.	1r	.	1ryy
16G\	.	.	.	.	.	.	.	.	.	.	.	.
16F#\	.	.	.	.	.	.	.	.	.	.	.	.
16E\JJ	.	.	.	.	.	.	.	.	.	.	.	.
16D\LL	.	.	.	.	.	.	.	.	.	.	.	.
16C#/	.	.	.	.	.	.	.	.	.	.	.	.
16BB/	.	.	.	.	.	.	.	.	.	.	.	.
16AA/JJ	.	.	.	.	.	.	.	.	.	.	.	.
16GG/LL	.	.	.	.	.	.	.	.	.	.	.	.
16AA/	.	.	.	.	.	.	.	.	.	.	.	.
16BB/	.	.	.	.	.	.	.	.	.	.	.	.
16C#/JJ	.	.	.	.	.	.	.	.	.	.	.	.
16D\LL	.	.	.	.	.	.	.	.	.	.	.	.
16E\	.	.	.	.	.	.	.	.	.	.	.	.
16F#\	.	.	.	.	.	.	.	.	.	.	.	.
16D\JJ	.	.	.	.	.	.	.	.	.	.	.	.
=80	=80	=80	=80	=80	=80	=80	=80	=80	=80	=80-	=80	=80
4G\	.	1ryy	1ryy	1ryy	.	1ryy	.	1ryy	.	8r	.	1ryy
.	.	.	.	.	.	.	.	.	.	8d/	Dum	.
4r	.	.	.	.	.	.	.	.	.	8d/	fir-	.
.	.	.	.	.	.	.	.	.	.	8d/	-ma-	.
!LO:TX:t=P:problem:mixed beam	!	!	!	!	!	!	!	!	!	!	!	!
16GG/LL	.	.	.	.	.	.	.	.	.	8g\L	-men-	.
16G\	.	.	.	.	.	.	.	.	.	.	.	.
!	!	!	!	!	!	!	!	!	!	!LO:SIC:o:s=:v:Łuk i cyfra od trioli	!	!
16F#\	.	.	.	.	.	.	.	.	.	16a\L	.	.
16E\JJ	.	.	.	.	.	.	.	.	.	16g\JJ	.	.
16D\LL	.	.	.	.	.	.	.	.	.	8g\L	.	.
16C#/	.	.	.	.	.	.	.	.	.	.	.	.
!	!	!	!	!	!	!	!	!	!	!LO:SIC:o:s=:v:Łuk i cyfra od trioli	!	!
16BB/	.	.	.	.	.	.	.	.	.	16a\L	.	.
16AA/JJ	.	.	.	.	.	.	.	.	.	16g\JJ	.	.
!	!	!	!	!	!	!	!	!	!	!LO:LB:g=original	!	!
=81	=81	=81	=81	=81	=81	=81	=81	=81	=81	=81	=81	=81
16GG/LL	.	1ryy	1ryy	1ryy	.	1ryy	.	1ryy	.	8b\	.	1ryy
16AA/	.	.	.	.	.	.	.	.	.	.	.	.
16BB/	.	.	.	.	.	.	.	.	.	8g\	-ti	.
16C#/JJ	.	.	.	.	.	.	.	.	.	.	.	.
16D\LL	.	.	.	.	.	.	.	.	.	8r	.	.
16E\	.	.	.	.	.	.	.	.	.	.	.	.
16F#\	.	.	.	.	.	.	.	.	.	(8a\	San-	.
16D\JJ	.	.	.	.	.	.	.	.	.	.	.	.
!LO:LB:g=original	!	!	!	!	!	!	!	!	!	!	!	!
8G\L	.	.	.	.	.	.	.	.	.	8b\)	.	.
8D\J	.	.	.	.	.	.	.	.	.	8a\	-ct(us)	.
!LO:TX:t=P:problem:mixed beam	!	!	!	!	!	!	!	!	!	!	!	!
8GG/L	.	.	.	.	.	.	.	.	.	8r	.	.
*	*	*	*	*	*	*	*	*	*	*	*ij	*
8G\J	.	.	.	.	.	.	.	.	.	(8b\	San-	.
=82	=82	=82	=82	=82	=82	=82	=82	=82	=82	=82	=82	=82
8A\L	.	1ryy	1ryy	1ryy	.	1ryy	.	1ryy	.	8ccn\)	.	1ryy
8F#\J	.	.	.	.	.	.	.	.	.	8b\	-ct(us)	.
!LO:TX:t=P:problem:mixed beam	!	!	!	!	!	!	!	!	!	!	!	!
8GG/L	.	.	.	.	.	.	.	.	.	8r	.	.
8B\J	6	.	.	.	.	.	.	.	.	8dd\	San-	.
8cn\L	.	.	.	.	.	.	.	.	.	16ee\LL	.	.
.	.	.	.	.	.	.	.	.	.	16ff#\	.	.
8A\J	.	.	.	.	.	.	.	.	.	(16gg\	.	.
.	.	.	.	.	.	.	.	.	.	16b\JJ)	.	.
!LO:TX:t=P:problem:mixed beam	!	!	!	!	!	!	!	!	!	!	!	!
8d\L	.	.	.	.	.	.	.	.	.	4a\	.	.
8D\J	.	.	.	.	.	.	.	.	.	.	.	.
=83	=83	=83	=83	=83	=83	=83	=83	=83	=83	=83	=83	=83
!LO:TX:t=P:problem:mixed beam	!	!	!	!	!	!	!	!	!	!	!	!
16GG/LL	.	1ryy	1ryy	1ryy	.	1ryy	.	1ryy	.	4g\	-ct(us)	1ryy
16G\	.	.	.	.	.	.	.	.	.	.	.	.
16F#\	.	.	.	.	.	.	.	.	.	.	.	.
16E\JJ	.	.	.	.	.	.	.	.	.	.	.	.
!	!	!	!	!	!	!	!	!	!	!LO:SIC:o:s=:v: brak pauzy	!	!
16D\LL	.	.	.	.	.	.	.	.	.	2ryy	.	.
16C#/	.	.	.	.	.	.	.	.	.	.	.	.
16BB/	.	.	.	.	.	.	.	.	.	.	.	.
16AA/JJ	.	.	.	.	.	.	.	.	.	.	.	.
16GG/LL	.	.	.	.	.	.	.	.	.	.	.	.
16AA/	.	.	.	.	.	.	.	.	.	.	.	.
16BB/	.	.	.	.	.	.	.	.	.	.	.	.
16C#/JJ	.	.	.	.	.	.	.	.	.	.	.	.
16D\LL	.	.	.	.	.	.	.	.	.	8r	.	.
16E\	.	.	.	.	.	.	.	.	.	.	.	.
*	*	*	*	*	*	*	*	*	*	*	*Xij	*
16F#\	.	.	.	.	.	.	.	.	.	8a\	Dum	.
16D\JJ	.	.	.	.	.	.	.	.	.	.	.	.
!	!	!	!	!	!	!	!	!	!	!LO:LB:g=original	!	!
=84	=84	=84	=84	=84	=84	=84	=84	=84	=84	=84	=84	=84
16G\LL	.	1ryy	1ryy	1ryy	.	1ryy	.	1ryy	.	4.dd\	fir-	1ryy
16d\	.	.	.	.	.	.	.	.	.	.	.	.
16c#X\	.	.	.	.	.	.	.	.	.	.	.	.
16B\JJ	.	.	.	.	.	.	.	.	.	.	.	.
16A\LL	.	.	.	.	.	.	.	.	.	.	.	.
16G\	.	.	.	.	.	.	.	.	.	.	.	.
16F#\	.	.	.	.	.	.	.	.	.	8ee\	-ma-	.
16E\JJ	.	.	.	.	.	.	.	.	.	.	.	.
!LO:LB:g=original	!	!	!	!	!	!	!	!	!	!	!	!
16D\LL	.	.	.	.	.	.	.	.	.	8.cc#\L	-men-	.
16E\	.	.	.	.	.	.	.	.	.	.	.	.
16F#\	.	.	.	.	.	.	.	.	.	.	.	.
16D\JJ	.	.	.	.	.	.	.	.	.	16b\Jk	.	.
16A\LL	.	.	.	.	.	.	.	.	.	8a\	-ti	.
16B\	.	.	.	.	.	.	.	.	.	.	.	.
16c#\	.	.	.	.	.	.	.	.	.	(8ee\	San-	.
16A\JJ	.	.	.	.	.	.	.	.	.	.	.	.
=85	=85	=85	=85	=85	=85	=85	=85	=85	=85	=85	=85	=85
8d\L	.	1ryy	1ryy	1ryy	.	1ryy	.	1ryy	.	8ff#\)	.	1ryy
8A\J	.	.	.	.	.	.	.	.	.	8ee\	-ct(us)	.
8D\L	.	.	.	.	.	.	.	.	.	8r	.	.
*	*	*	*	*	*	*	*	*	*	*	*ij	*
8A\J	.	.	.	.	.	.	.	.	.	(8ee\	San-	.
8d\L	.	.	.	.	.	.	.	.	.	8ff#\)	.	.
8A\J	.	.	.	.	.	.	.	.	.	8ee\	-ct(us)	.
8D\L	.	.	.	.	.	.	.	.	.	8r	.	.
*	*	*	*	*	*	*	*	*	*	*	*Xij	*
8A\J	.	.	.	.	.	.	.	.	.	8ee\	San-	.
=86	=86	=86	=86	=86	=86	=86	=86	=86	=86	=86	=86	=86
8B\L	.	1ryy	1ryy	1ryy	.	1ryy	.	1ryy	.	16ff#\LL	.	1ryy
.	.	.	.	.	.	.	.	.	.	16ee\JJ	.	.
8G\J	.	.	.	.	.	.	.	.	.	16dd\LL	-ct(us)	.
.	.	.	.	.	.	.	.	.	.	16ee\JJ	.	.
!LO:TX:t=P:problem:mixed beam	!	!	!	!	!	!	!	!	!	!	!	!
*	*	*	*	*	*	*	*	*	*	*	*ij	*
8A\L	.	.	.	.	.	.	.	.	.	4cc#\	San-	.
8AA/J	.	.	.	.	.	.	.	.	.	.	.	.
16D\LL	.	.	.	.	.	.	.	.	.	4dd\	-ct(us)	.
16G\	.	.	.	.	.	.	.	.	.	.	.	.
16F#\	.	.	.	.	.	.	.	.	.	.	.	.
16E\JJ	.	.	.	.	.	.	.	.	.	.	.	.
16D\LL	.	.	.	.	.	.	.	.	.	4r	.	.
16C#/	.	.	.	.	.	.	.	.	.	.	.	.
!LO:SIC:o:s=:v:kasownik nad dźwiękiem	!	!	!	!	!	!	!	!	!	!	!	!
16BBn/	.	.	.	.	.	.	.	.	.	.	.	.
16AA/JJ	.	.	.	.	.	.	.	.	.	.	.	.
!	!	!	!	!	!	!	!	!	!	!LO:PB:g=original	!	!
=87	=87	=87	=87	=87	=87	=87	=87	=87	=87	=87	=87	=87
16GG/LL	.	1ryy	1ryy	1ryy	.	1ryy	.	1ryy	.	4r	.	1ryy
16AA/	.	.	.	.	.	.	.	.	.	.	.	.
16BB/	.	.	.	.	.	.	.	.	.	.	.	.
16C#/JJ	.	.	.	.	.	.	.	.	.	.	.	.
16D\LL	.	.	.	.	.	.	.	.	.	8r	.	.
16E\	.	.	.	.	.	.	.	.	.	.	.	.
*	*	*	*	*	*	*	*	*	*	*	*Xij	*
16F#\	.	.	.	.	.	.	.	.	.	8dd\	San-	.
16D\JJ	.	.	.	.	.	.	.	.	.	.	.	.
!LO:LB:g=original	!	!	!	!	!	!	!	!	!	!	!	!
4G\	.	.	.	.	.	.	.	.	.	4.b\	-ct-	.
4r	.	.	.	.	.	.	.	.	.	.	.	.
.	.	.	.	.	.	.	.	.	.	16a\LL	-(us)	.
.	.	.	.	.	.	.	.	.	.	16g\JJ	.	.
=88	=88	=88	=88	=88	=88	=88	=88	=88	=88	=88	=88	=88
!LO:TX:t=P:problem:mixed beam	!	!	!	!	!	!	!	!	!	!	!	!
16D\LL	.	1ryy	1ryy	1ryy	.	1ryy	.	1ryy	.	8a\	.	1ryy
16d\	.	.	.	.	.	.	.	.	.	.	.	.
!LO:SIC:o:s=:v:krzyżyk nad dźwiękiem	!	!	!	!	!	!	!	!	!	!	!	!
16c#X\	.	.	.	.	.	.	.	.	.	8d/	.	.
16B\JJ	.	.	.	.	.	.	.	.	.	.	.	.
16A\LL	.	.	.	.	.	.	.	.	.	8r	.	.
16G\	.	.	.	.	.	.	.	.	.	.	.	.
16F#\	.	.	.	.	.	.	.	.	.	8aa\	San-	.
16E\JJ	.	.	.	.	.	.	.	.	.	.	.	.
4D/	.	.	.	.	.	.	.	.	.	4.ff#\	.	.
4r	.	.	.	.	.	.	.	.	.	.	.	.
.	.	.	.	.	.	.	.	.	.	16ee\LL	.	.
.	.	.	.	.	.	.	.	.	.	16dd\JJ	.	.
=89	=89	=89	=89	=89	=89	=89	=89	=89	=89	=89	=89	=89
!LO:TX:t=P:problem:mixed beam	!	!	!	!	!	!	!	!	!	!	!	!
16D\LL	.	1ryy	1ryy	1ryy	.	1ryy	.	1ryy	.	8ee\	-ct(us)	1ryy
16d\	.	.	.	.	.	.	.	.	.	.	.	.
!LO:SIC:o:s=:v:krzyżyk nad dźwiękiem	!	!	!	!	!	!	!	!	!	!	!	!
16c#X\	.	.	.	.	.	.	.	.	.	8a\	.	.
16B\JJ	.	.	.	.	.	.	.	.	.	.	.	.
16A\LL	.	.	.	.	.	.	.	.	.	8r	.	.
16G\	.	.	.	.	.	.	.	.	.	.	.	.
*	*	*	*	*	*	*	*	*	*	*	*ij	*
16F#\	.	.	.	.	.	.	.	.	.	8dd\	San-	.
16E\JJ	.	.	.	.	.	.	.	.	.	.	.	.
16D\LL	.	.	.	.	.	.	.	.	.	8dd\	.	.
16E\	.	.	.	.	.	.	.	.	.	.	.	.
16F#\	.	.	.	.	.	.	.	.	.	16ee\LL	.	.
16G\JJ	.	.	.	.	.	.	.	.	.	16b\JJ	.	.
!LO:TX:t=P:problem:mixed beam	!	!	!	!	!	!	!	!	!	!	!	!
8A\L	.	.	.	.	.	.	.	.	.	4cc#\	.	.
8AA/J	.	.	.	.	.	.	.	.	.	.	.	.
!	!	!	!	!	!	!	!	!	!	!LO:LB:g=original	!	!
=90	=90	=90	=90	=90	=90	=90	=90	=90	=90	=90	=90	=90
!LO:TX:t=P:problem:mixed beam	!	!	!	!	!	!	!	!	!	!	!	!
8D\L	.	1ryy	1ryy	1ryy	.	1ryy	.	1ryy	.	4dd\	-ct(us)	1ryy
16d\L	.	.	.	.	.	.	.	.	.	.	.	.
16c#\JJ	.	.	.	.	.	.	.	.	.	.	.	.
8d\L	.	.	.	.	.	.	.	.	.	4r	.	.
8A\J	.	.	.	.	.	.	.	.	.	.	.	.
*	*	*	*	*	*	*	*	*	*	*	*Xij	*
4D/	.	.	.	.	.	.	.	.	.	8a\L	Re-	.
.	.	.	.	.	.	.	.	.	.	16dd\L	.	.
.	.	.	.	.	.	.	.	.	.	16cc#\JJ	.	.
4r	.	.	.	.	.	.	.	.	.	8dd\L	-gi-	.
.	.	.	.	.	.	.	.	.	.	8a\J	.	.
=91	=91	=91	=91	=91	=91	=91	=91	=91	=91	=91	=91	=91
!LO:TX:t=P:problem:mixed beam	!	!	!	!	!	!	!	!	!	!	!	!
8GG/L	.	1ryy	1ryy	1ryy	.	1ryy	.	1ryy	.	4b\	-a	1ryy
16G\L	.	.	.	.	.	.	.	.	.	.	.	.
16F#\JJ	.	.	.	.	.	.	.	.	.	.	.	.
!LO:LB:g=original	!	!	!	!	!	!	!	!	!	!	!	!
8G\L	.	.	.	.	.	.	.	.	.	4r	.	.
8D\J	.	.	.	.	.	.	.	.	.	.	.	.
4E\	.	.	.	.	.	.	.	.	.	8b\L	Re-	.
.	.	.	.	.	.	.	.	.	.	16ee\L	.	.
.	.	.	.	.	.	.	.	.	.	16dd\JJ	.	.
4r	.	.	.	.	.	.	.	.	.	16cc#\LL	.	.
.	.	.	.	.	.	.	.	.	.	16b\	.	.
.	.	.	.	.	.	.	.	.	.	16a\	.	.
.	.	.	.	.	.	.	.	.	.	16g\JJ	.	.
=92	=92	=92	=92	=92	=92	=92	=92	=92	=92	=92	=92	=92
!LO:TX:t=P:problem:mixed beam	!	!	!	!	!	!	!	!	!	!	!	!
8D\L	.	1ryy	1ryy	1ryy	.	1ryy	.	1ryy	.	8f#/	.	1ryy
16d\L	.	.	.	.	.	.	.	.	.	16e/	-gi-	.
16cn\JJ	.	.	.	.	.	.	.	.	.	16d/	-a	.
16B\LL	.	.	.	.	.	.	.	.	.	8g\	-ſu-	.
16A\	.	.	.	.	.	.	.	.	.	.	.	.
16G\	.	.	.	.	.	.	.	.	.	8a\	-bit	.
16F#\JJ	.	.	.	.	.	.	.	.	.	.	.	.
!LO:TX:t=P:problem:mixed beam	!	!	!	!	!	!	!	!	!	!	!	!
8E\L	.	.	.	.	.	.	.	.	.	8b\L	me-	.
8Cn/	.	.	.	.	.	.	.	.	.	16ccn\L	.	.
.	.	.	.	.	.	.	.	.	.	16b\JJ	.	.
!	!	!	!	!	!	!	!	!	!	!LO:LB:g=original	!	!
8D\	.	.	.	.	.	.	.	.	.	8.a\	.	.
8DD/J	.	.	.	.	.	.	.	.	.	.	.	.
.	.	.	.	.	.	.	.	.	.	16g\	-ni-	.
=93	=93	=93	=93	=93	=93	=93	=93	=93	=93	=93	=93	=93
!LO:TX:t=P:problem:mixed beam	!	!	!	!	!	!	!	!	!	!	!	!
8GG/L	.	1ryy	1ryy	1ryy	.	1ryy	.	1ryy	.	4g/	-a	1ryy
16G\L	.	.	.	.	.	.	.	.	.	.	.	.
16F#\JJ	.	.	.	.	.	.	.	.	.	.	.	.
8G\L	.	.	.	.	.	.	.	.	.	4r	.	.
8D\J	.	.	.	.	.	.	.	.	.	.	.	.
4GG/	.	.	.	.	.	.	.	.	.	8g\L	Re-	.
.	.	.	.	.	.	.	.	.	.	16ccn\L	.	.
.	.	.	.	.	.	.	.	.	.	16b\JJ	.	.
4r	.	.	.	.	.	.	.	.	.	8cc\L	.	.
.	.	.	.	.	.	.	.	.	.	8g\J	.	.
=94	=94	=94	=94	=94	=94	=94	=94	=94	=94	=94	=94	=94
4F#\	6	1ryy	1ryy	1ryy	.	1ryy	.	1ryy	.	8a\L	.	1ryy
.	.	.	.	.	.	.	.	.	.	16dd\L	.	.
.	.	.	.	.	.	.	.	.	.	16cc#\JJ	.	.
4r	.	.	.	.	.	.	.	.	.	8dd\L	.	.
.	.	.	.	.	.	.	.	.	.	8a\J	.	.
4E\	.	.	.	.	.	.	.	.	.	8b\L	.	.
.	.	.	.	.	.	.	.	.	.	16ee\L	.	.
.	.	.	.	.	.	.	.	.	.	16dd\JJ	.	.
4r	.	.	.	.	.	.	.	.	.	16ccn\LL	.	.
.	.	.	.	.	.	.	.	.	.	16b\	.	.
.	.	.	.	.	.	.	.	.	.	16a\	.	.
.	.	.	.	.	.	.	.	.	.	16g\JJ	.	.
=95	=95	=95	=95	=95	=95	=95	=95	=95	=95	=95	=95	=95
8D\L	.	1ryy	1ryy	1ryy	.	1ryy	.	1ryy	.	8f#/	.	1ryy
16d\L	.	.	.	.	.	.	.	.	.	16e/	-gi-	.
!LO:SIC:o:s=:v:kasownik nad dźwiękiem	!	!	!	!	!	!	!	!	!	!	!	!
16cn\JJ	.	.	.	.	.	.	.	.	.	16d/	-a	.
!	!	!	!	!	!	!	!	!	!	!LO:LB:g=original	!	!
16B\LL	.	.	.	.	.	.	.	.	.	8g\	-ſu-	.
16A\	.	.	.	.	.	.	.	.	.	.	.	.
16G\	.	.	.	.	.	.	.	.	.	8a\	-bit	.
16F#\JJ	.	.	.	.	.	.	.	.	.	.	.	.
!LO:LB:g=original	!	!	!	!	!	!	!	!	!	!	!	!
!LO:TX:t=P:problem:mixed beam	!	!	!	!	!	!	!	!	!	!	!	!
8E\L	.	.	.	.	.	.	.	.	.	8b\L	me-	.
8Cn/	.	.	.	.	.	.	.	.	.	16cc#\L	.	.
.	.	.	.	.	.	.	.	.	.	16b\JJ	.	.
8D\	.	.	.	.	.	.	.	.	.	8.a\	.	.
8DD/J	.	.	.	.	.	.	.	.	.	.	.	.
.	.	.	.	.	.	.	.	.	.	16g\	-ni-	.
=96	=96	=96	=96	=96	=96	=96	=96	=96	=96	=96	=96	=96
!LO:TX:t=P:problem:mixed beam	!	!	!	!	!	!	!	!	!	!	!	!
16GG/LL	.	1ryy	1ryy	1ryy	.	1ryy	.	1ryy	.	4g/	-a	1ryy
16G\	.	.	.	.	.	.	.	.	.	.	.	.
16F#\	.	.	.	.	.	.	.	.	.	.	.	.
16E\JJ	.	.	.	.	.	.	.	.	.	.	.	.
16D\LL	.	.	.	.	.	.	.	.	.	4r	.	.
16C#/	.	.	.	.	.	.	.	.	.	.	.	.
16BB/	.	.	.	.	.	.	.	.	.	.	.	.
16AA/JJ	.	.	.	.	.	.	.	.	.	.	.	.
16GG/LL	.	.	.	.	.	.	.	.	.	2r	.	.
16AA/	.	.	.	.	.	.	.	.	.	.	.	.
16BB/	.	.	.	.	.	.	.	.	.	.	.	.
!LO:SIC:o:s=:v:kasownik nad dźwiękiem	!	!	!	!	!	!	!	!	!	!	!	!
16Cn/JJ	.	.	.	.	.	.	.	.	.	.	.	.
16D\LL	.	.	.	.	.	.	.	.	.	.	.	.
16E\	.	.	.	.	.	.	.	.	.	.	.	.
16F#\	.	.	.	.	.	.	.	.	.	.	.	.
16D\JJ	.	.	.	.	.	.	.	.	.	.	.	.
=97	=97	=97	=97	=97	=97	=97	=97	=97	=97	=97	=97	=97
4G\	.	1ryy	1ryy	1ryy	.	1ryy	.	1ryy	.	1r	.	1ryy
4ryy	.	.	.	.	.	.	.	.	.	.	.	.
2ryy	.	.	.	.	.	.	.	.	.	.	.	.
!	!	!	!	!LO:LB:g=original	!	!	!	!	!	!	!	!
=98||	=98||	=98||	=98||	=98||	=98||	=98||	=98||	=98||	=98||	=98||	=98||	=98||
!	!	!LO:TX:b:t=Plaudite ſidera	!LO:TX:a:t=Plaudite	!	!	!LO:TX:a:t=Da Cappo\nPlaudite	!	!LO:TX:a:t=9	!	!	!	!
!LO:TX:b:i:t=Da Capo\nPlaudite ſidera	!	!LO:TX:a:t=Da Cappo	!LO:TX:a:t=Da Cappo	!LO:TX:a:t=Da Cappo\nPlaudite	!	!	!	!LO:TX:a:t=Da Cappo\nPlaudite ſidera	!	!LO:TX:a:t=Da Cappo\nPlaudite	!	!LO:TX:a:t=Da Cappo\nPlaudite\nſidera
4Dyy\	.	4ayy/	4ff#yy\	1ryy	.	00ryy	.	00ryy	.	00ryy	.	8ff#\Lyy
.	.	.	.	.	.	.	.	.	.	.	.	16ee\Lyy
.	.	.	.	.	.	.	.	.	.	.	.	16dd\JJyy
8ryy	.	8ryy	8ryy	.	.	.	.	.	.	.	.	4ryy
8C#yy/	.	8eeyy\	8aayy\	.	.	.	.	.	.	.	.	.
8D\Lyy	.	8a/Lyy	8ff#\Lyy	.	.	.	.	.	.	.	.	2ryy
8C#yy/	.	8ayy/	8eeyy\	.	.	.	.	.	.	.	.	.
8Dyy\	.	8ayy/	8ff#yy\	.	.	.	.	.	.	.	.	.
[8BB/Jyy	.	8dd\Jyy	8gg#X\Jyy	.	.	.	.	.	.	.	.	.
=99	=99	=99	=99	=99	=99	=99	=99	=99	=99	=99	=99	=99
!	!	!LO:TX:t=P:problem:mixed beam	!LO:TX:t=P:problem:mixed beam	!	!	!	!	!	!	!	!	!
4AA/]yy	.	8cc#\Lyy	8aa\Lyy	1ryy	.	.	.	.	.	.	.	4ddyy\
.	.	8c#/Jyy	8a/Jyy	.	.	.	.	.	.	.	.	.
4ryy	.	4ryy	4ryy	.	.	.	.	.	.	.	.	8ryy
.	.	.	.	.	.	.	.	.	.	.	.	8ff#yy\
!	!	!	!	!	!	!	!	!	!	!	!	!LO:TX:t=P:problem:mixed beam
2ryy	.	2ryy	2ryy	.	.	.	.	.	.	.	.	8ee\Lyy
.	.	.	.	.	.	.	.	.	.	.	.	8a/Jyy
.	.	.	.	.	.	.	.	.	.	.	.	16aa\LLyy
.	.	.	.	.	.	.	.	.	.	.	.	16bbyy\
.	.	.	.	.	.	.	.	.	.	.	.	16aayy\
.	.	.	.	.	.	.	.	.	.	.	.	[16gg\JJyy
=100	=100	=100	=100	=100	=100	=100	=100	=100	=100	=100	=100	=100
4ryy	.	4ryy	4ryy	1ryy	.	.	.	.	.	.	.	8ff#\L]yy
.	.	.	.	.	.	.	.	.	.	.	.	16ee\Lyy
.	.	.	.	.	.	.	.	.	.	.	.	16dd\JJyy
4Dyy\	.	8a/Lyy	8dd\Lyy	.	.	.	.	.	.	.	.	4ryy
.	.	8a/Jyy	8dd\Jyy	.	.	.	.	.	.	.	.	.
4Gyy\	.	4ddyy\	4byy\	.	.	.	.	.	.	.	.	16ryy
.	.	.	.	.	.	.	.	.	.	.	.	16dd\LLyy
.	.	.	.	.	.	.	.	.	.	.	.	16eeyy\
.	.	.	.	.	.	.	.	.	.	.	.	16ff#\JJyy
4ryy	.	4ryy	4ryy	.	.	.	.	.	.	.	.	16gg\LLyy
.	.	.	.	.	.	.	.	.	.	.	.	16aayy\
.	.	.	.	.	.	.	.	.	.	.	.	16ggyy\
.	.	.	.	.	.	.	.	.	.	.	.	[16ff#\JJyy
=101	=101	=101	=101	=101	=101	=101	=101	=101	=101	=101	=101	=101
4ryy	.	4ryy	4ryy	1ryy	.	.	.	.	.	.	.	4ee\]yy
4Eyy\	.	8b\Lyy	8ee\Lyy	.	.	.	.	.	.	.	.	4ryy
.	.	8b\Jyy	8ee\Jyy	.	.	.	.	.	.	.	.	.
4Ayy\	.	4eeyy\	4cc#yy\	.	.	.	.	.	.	.	.	16ryy
.	.	.	.	.	.	.	.	.	.	.	.	16ee\LLyy
.	.	.	.	.	.	.	.	.	.	.	.	16ff#yy\
.	.	.	.	.	.	.	.	.	.	.	.	16gg\JJyy
4ryy	.	4ryy	4ryy	.	.	.	.	.	.	.	.	16aa\LLyy
.	.	.	.	.	.	.	.	.	.	.	.	16bbyy\
.	.	.	.	.	.	.	.	.	.	.	.	16aayy\
.	.	.	.	.	.	.	.	.	.	.	.	[16gg\JJyy
=102	=102	=102	=102	=102	=102	=102	=102	=102	=102	=102	=102	=102
4ryy	.	4ryy	4ryy	1ryy	.	00ryy	.	00ryy	.	00ryy	.	4ff#\]yy
4F#yy\	.	8dd\Lyy	8ff#\Lyy	.	.	.	.	.	.	.	.	4ryy
.	.	8dd\Jyy	8ff#\Jyy	.	.	.	.	.	.	.	.	.
4Byy\	.	16b\LLyy	16dd\LLyy	.	.	.	.	.	.	.	.	2ryy
.	.	16byy\	16ddyy\	.	.	.	.	.	.	.	.	.
.	.	16cc#yy\	16eeyy\	.	.	.	.	.	.	.	.	.
.	.	16dd\JJyy	16ff#\JJyy	.	.	.	.	.	.	.	.	.
4Gyy\	.	16ee\LLyy	16gg\LLyy	.	.	.	.	.	.	.	.	.
.	.	16ff#yy\	16aayy\	.	.	.	.	.	.	.	.	.
.	.	16eeyy\	16ff#yy\	.	.	.	.	.	.	.	.	.
.	.	[16ee\JJyy	[16gg\JJyy	.	.	.	.	.	.	.	.	.
=103	=103	=103	=103	=103	=103	=103	=103	=103	=103	=103	=103	=103
!LO:TX:t=P:problem:mixed beam	!	!	!	!	!	!	!	!	!	!	!	!
8A\Lyy	.	8cc#\L]yy	8ee\L]yy	1ryy	.	.	.	.	.	.	.	2ryy
8Dyy\	.	8ddyy\	16ff#\Lyy	.	.	.	.	.	.	.	.	.
.	.	.	16ee\JJyy	.	.	.	.	.	.	.	.	.
8Ayy\	.	8.ddyy\	8ff#\Lyy	.	.	.	.	.	.	.	.	.
8AA/Jyy	.	.	16ee\Lyy	.	.	.	.	.	.	.	.	.
.	.	16cc#\Jkyy	16dd\JJyy	.	.	.	.	.	.	.	.	.
4Dyy\	.	4ddyy\	4ddyy\	.	.	.	.	.	.	.	.	16ryy
.	.	.	.	.	.	.	.	.	.	.	.	16ee\LLyy
.	.	.	.	.	.	.	.	.	.	.	.	16ff#yy\
.	.	.	.	.	.	.	.	.	.	.	.	16gg\JJyy
8ryy	.	4ryy	4ryy	.	.	.	.	.	.	.	.	16aa\LLyy
.	.	.	.	.	.	.	.	.	.	.	.	16bbyy\
8C#yy/	.	.	.	.	.	.	.	.	.	.	.	16aayy\
.	.	.	.	.	.	.	.	.	.	.	.	[16gg\JJyy
=104	=104	=104	=104	=104	=104	=104	=104	=104	=104	=104	=104	=104
!LO:TX:t=P:problem:mixed beam	!	!	!	!	!	!	!	!	!	!	!	!
8D\Lyy	.	2ryy	2ryy	1ryy	.	.	.	.	.	.	.	8ff#\L]yy
8Gyy\	.	.	.	.	.	.	.	.	.	.	.	16bb\Lyy
.	.	.	.	.	.	.	.	.	.	.	.	16ff#\JJyy
8Ayy\	.	.	.	.	.	.	.	.	.	.	.	8.ee\Lyy
8AA/Jyy	.	.	.	.	.	.	.	.	.	.	.	.
.	.	.	.	.	.	.	.	.	.	.	.	16dd\Jkyy
4Dyy\	.	4f#yy/	16ryy	.	.	.	.	.	.	.	.	4ddyy\
.	.	.	16a/LLyy	.	.	.	.	.	.	.	.	.
.	.	.	16byy\	.	.	.	.	.	.	.	.	.
.	.	.	16cc#\JJyy	.	.	.	.	.	.	.	.	.
[4F#yy\	.	[4ayy/	16dd\LLyy	.	.	.	.	.	.	.	.	4ryy
.	.	.	16eeyy\	.	.	.	.	.	.	.	.	.
.	.	.	16cc#yy\	.	.	.	.	.	.	.	.	.
.	.	.	[16dd\JJyy	.	.	.	.	.	.	.	.	.
=105	=105	=105	=105	=105	=105	=105	=105	=105	=105	=105	=105	=105
4G\]yy	.	4g/]yy	4b\]yy	1ryy	.	.	.	.	.	.	.	16ryy
.	.	.	.	.	.	.	.	.	.	.	.	16dd\LLyy
.	.	.	.	.	.	.	.	.	.	.	.	16eeyy\
.	.	.	.	.	.	.	.	.	.	.	.	16ff#\JJyy
4ryy	.	4ryy	4ryy	.	.	.	.	.	.	.	.	16gg\LLyy
.	.	.	.	.	.	.	.	.	.	.	.	16aayy\
.	.	.	.	.	.	.	.	.	.	.	.	16ggyy\
.	.	.	.	.	.	.	.	.	.	.	.	16ff#\JJyy
4Eyy\	.	4gyy/	16ryy	.	.	.	.	.	.	.	.	4eeyy\
.	.	.	16b\LLyy	.	.	.	.	.	.	.	.	.
.	.	.	16cc#yy\	.	.	.	.	.	.	.	.	.
.	.	.	16dd\JJyy	.	.	.	.	.	.	.	.	.
[4G#Xyy\	.	[4byy\	16ee\LLyy	.	.	.	.	.	.	.	.	4ryy
.	.	.	16ff#yy\	.	.	.	.	.	.	.	.	.
.	.	.	16ddyy\	.	.	.	.	.	.	.	.	.
.	.	.	[16ee\JJyy	.	.	.	.	.	.	.	.	.
=106	=106	=106	=106	=106	=106	=106	=106	=106	=106	=106	=106	=106
4A\]yy	.	4a/]yy	4cc#\]yy	1ryy	.	0ryy	.	0ryy	.	0ryy	.	16ryy
.	.	.	.	.	.	.	.	.	.	.	.	16ee\LLyy
.	.	.	.	.	.	.	.	.	.	.	.	16ff#yy\
.	.	.	.	.	.	.	.	.	.	.	.	16gg\JJyy
8ryy	.	8ryy	8ryy	.	.	.	.	.	.	.	.	16aa\LLyy
.	.	.	.	.	.	.	.	.	.	.	.	16bbyy\
8C#yy/	.	8cc#yy\	8eeyy\	.	.	.	.	.	.	.	.	16ggyy\
.	.	.	.	.	.	.	.	.	.	.	.	16aa\JJyy
!LO:TX:t=P:problem:mixed beam	!	!	!	!	!	!	!	!	!	!	!	!
8D\Lyy	.	8dd\Lyy	8ff#\Lyy	.	.	.	.	.	.	.	.	8ff#\Lyy
8Gyy\	.	8dd\Jyy	16gg\Lyy	.	.	.	.	.	.	.	.	16bb\Lyy
.	.	.	16ff#\JJyy	.	.	.	.	.	.	.	.	16ff#\JJyy
8Ayy\	.	8.dd\Lyy	8.ee\Lyy	.	.	.	.	.	.	.	.	8.ee\Lyy
[8AA/Jyy	.	.	.	.	.	.	.	.	.	.	.	.
.	.	16cc#\Jkyy	16dd\Jkyy	.	.	.	.	.	.	.	.	16dd\Jkyy
=107	=107	=107	=107	=107	=107	=107	=107	=107	=107	=107	=107	=107
!LO:SIC:o:s=:v:dodatkowy takt w głosach wokalnych	!	!LO:SIC:o:s=:v:dodatkowy takt w głosach wokalnych	!LO:SIC:o:s=:v:dodatkowy takt w głosach wokalnych	!LO:SIC:o:s=:v:dodatkowy takt w głosach wokalnych	!LO:SIC:o:s=:v:dodatkowy takt w głosach wokalnych	!LO:SIC:o:s=:v:dodatkowy takt w głosach wokalnych	!LO:SIC:o:s=:v:dodatkowy takt w głosach wokalnych	!LO:SIC:o:s=:v:dodatkowy takt w głosach wokalnych	!LO:SIC:o:s=:v:dodatkowy takt w głosach wokalnych	!	!LO:SIC:o:s=:v:dodatkowy takt w głosach wokalnych	!LO:SIC:o:s=:v:dodatkowy takt w głosach wokalnych
1ryy	.	1ryy	1ryy	1ryy	1ryy	.	.	.	.	.	.	1ryy
=108	=108	=108	=108	=108	=108	=108	=108	=108	=108	=108	=108	=108
!	!	!	!	!	!	!	!	!	!	!	!	!LO:TX:b:t=Plaudite ſidera
!LO:TX:b:t=tutti	!	!LO:TX:b:t=Plaudite ſidera	!LO:TX:b:t=Plaudate Sidera	!	!	!	!	!	!	!LO:TX:a:t=Tutti	!	!LO:TX:b:t=Tutti
4D\]yy	.	4ddyy\	4ddyy\	8.Dyy\	Plau-	8.Ayy\	Plau-	8.f#yy\	Plau-	8.ddyy\	Plau-	4ddyy\
.	.	.	.	16Dyy\	-di-	16Ayy\	-di-	16f#yy\	-di-	16ddyy\	-di-	.
4Dyy\	.	4ryy	4ryy	4Dyy\	-te	4Ayy\	-te	4f#yy\	-te	4ddyy\	-te	4ryy
!	!	!LO:N:vis=16	!	!	!	!	!	!	!	!	!	!
4Ayy\	.	8ryy	16ryy	8.Ayy\	ſi-	8.c#yy\	ſi-	8.ayy\	ſi-	8.eeyy\	ſi-	16ryy
.	.	.	16ee\LLyy	.	.	.	.	.	.	.	.	16ee\LLyy
.	.	8cc#\Lyy	16ff#yy\	.	.	.	.	.	.	.	.	16ff#yy\
.	.	.	16gg\JJyy	16Ayy\	-de-	16c#yy\	-de-	16ayy\	-de-	16eeyy\	-de-	16gg\JJyy
4AAyy/	.	8eeyy\	16aa\LLyy	4Ayy\	-ra	4c#yy\	-ra	4ayy\	-ra	4eeyy\	-ra	8aa\Lyy
.	.	.	16bbyy\	.	.	.	.	.	.	.	.	.
.	.	[8ee\Jyy	16ggyy\	.	.	.	.	.	.	.	.	[8ee\Jyy
.	.	.	[16aa\JJyy	.	.	.	.	.	.	.	.	.
=109	=109	=109	=109	=109	=109	=109	=109	=109	=109	=109	=109	=109
!LO:TX:t=P:problem:mixed beam	!	!	!	!	!	!	!	!	!	!	!	!
8D\Lyy	.	8dd\L]yy	16ff#\LL]yy	2ryy	.	2ryy	.	2ryy	.	2ryy	.	8ff#\L]yy
.	.	.	16ggyy\	.	.	.	.	.	.	.	.	.
8Gyy\	.	8ddyy\	16eeyy\	.	.	.	.	.	.	.	.	16gg\Lyy
.	.	.	16ff#\JJyy	.	.	.	.	.	.	.	.	16ff#\JJyy
8Ayy\	.	8.ddyy\	8.ee\Lyy	.	.	.	.	.	.	.	.	8.ee\Lyy
8AA/Jyy	.	.	.	.	.	.	.	.	.	.	.	.
.	.	16cc#\Jkyy	16dd\Jkyy	.	.	.	.	.	.	.	.	16dd\Jkyy
*	*	*	*	*	*ij	*	*ij	*	*ij	*	*ij	*
4Dyy\	.	4ddyy\	4ddyy\	8.Dyy\	Plau-	8.Ayy\	Plau-	8.f#yy\	Plau-	8.ddyy\	Plau-	4ddyy\
.	.	.	.	16Dyy\	-di-	16Ayy\	-di-	16f#yy\	-di-	16ddyy\	-di-	.
[4Dyy\	.	4ryy	4ryy	[4Dyy\	-te	[4Ayy\	-te	[4f#yy\	-te	[4ddyy\	-te	4ryy
=110	=110	=110	=110	=110	=110	=110	=110	=110	=110	=110	=110	=110
4A\]yy	.	4cc#yy\	4eeyy\	8.A\]yy	ſi-	8.c#\]yy	ſi-	8.a\]yy	ſi-	8.ee\]yy	ſi-	4eeyy\
.	.	.	.	16Ayy\	-de-	16c#yy\	-de-	16ayy\	-de-	16eeyy\	-de-	.
8A\Lyy	.	8ee\Lyy	8aa\Lyy	8Ayy\	-ra	8c#yy\	-ra	8ayy\	-ra	8eeyy\	-ra	8ee\Lyy
*	*	*	*	*	*Xij	*	*Xij	*	*Xij	*	*Xij	*
8F#\Jyy	.	8ff#\Jyy	8aa\Jyy	8F#yy\	I	8dyy\	I	8ayy\	I	8ddyy\	I	8ff#\Jyy
8G\Lyy	.	8dd\Lyy	8bb\Lyy	8Gyy\	o-	8Byy\	-o-	8gyy\	o-	8ddyy\	o-	8dd\Lyy
8A\Jyy	.	8dd\Jyy	8aa\Jyy	8Ayy\	-per	8c#yy\	-per	8ayy\	-per	8ddyy\	-per	8ddyy\
[4Byy\	.	8.dd\Lyy	8.aa\Lyy	8.Byy\	(ae)-	8.Byy\	(ae)-	8.ayy\	(ae)-	8.ddyy\	(ae)-	8.ddyy\
.	.	[16cc#\Jkyy	[16gg#X\Jkyy	[16Byy\	-ther-	[16Byy\	-ther-	[16g#Xyy\	-ther-	[16cc#yy\	-ther-	[16ee\Jkyy
=111	=111	=111	=111	=111	=111	=111	=111	=111	=111	=111	=111	=111
4A\]yy	.	8cc#\L]yy	8aa\L]yy	4A\]yy	-ra	4E/]yy	-ra	4a\]yy	-ra	4dd\]yy	-ra	8.ff#\L]yy
.	.	8ee\Jyy	16aa\Lyy	.	.	.	.	.	.	.	.	.
.	.	.	16gg\JJyy	.	.	.	.	.	.	.	.	16ee\Jkyy
8ryy	.	8dd\Lyy	8ff#\Lyy	8ryy	.	8ryy	.	8ryy	.	8ryy	.	8ff#\Lyy
8F#yy\	.	8ff#\Jyy	8aayy\	8F#yy\	I	8f#yy\	I	8ayy\	I	8ddyy\	I	8dd\Jyy
8G\Lyy	.	8ee\Lyy	8bbyy\	8Gyy\	o-	8eyy\	o-	8byy\	o-	8ddyy\	o-	8ee\Lyy
8D\Jyy	.	8ff#\Jyy	8aa\Jyy	8Dyy\	-per	8f#yy\	-per	8byy\	-per	8ddyy\	-per	8ff#yy\
!LO:TX:t=P:problem:mixed beam	!	!	!	!	!	!	!	!	!	!	!	!
8A\Lyy	.	8.ee\Lyy	8.aa\Lyy	8.Ayy\	(ae)-	8.eyy\	-(ae)-	8.byy\	(ae)-	8.ddyy\	(ae)-	8.eeyy\
[8AA/Jyy	.	.	.	.	.	.	.	.	.	.	.	.
.	.	16ee\Jkyy	[16aa\Jkyy	[16Ayy\	-ther-	[16eyy\	-ther-	[16ayy\	-ther-	[16cc#yy\	-ther-	[16dd\Jkyy
=112	=112	=112	=112	=112	=112	=112	=112	=112	=112	=112	=112	=112
!	!	!LO:TX:t=P:problem:mixed beam	!	!	!	!	!	!	!	!	!	!
4D\]yy	.	8ff#\Lyy	8aa\L]yy	4D\]yy	-ra	4d\]yy	-ra	4a\]yy	-ra	4dd\]yy	-ra	8dd\L]yy
.	.	8ayy/	8dd\Jyy	.	.	.	.	.	.	.	.	8ddyy\
4ryy	.	8ayy/	8dd\Lyy	4ryy	.	4ryy	.	4ryy	.	4ryy	.	8ddyy\
.	.	8a/Jyy	8dd\Jyy	.	.	.	.	.	.	.	.	8dd\Jyy
8ryy	.	8ee\Lyy	8gg\Lyy	2ryy	.	2ryy	.	2ryy	.	2ryy	.	8gg\Lyy
!LO:TX:b:i:t=Solo	!	!	!	!	!	!	!	!	!	!	!	!
8E\Lyy	.	8ee\Jyy	8gg\Jyy	.	.	.	.	.	.	.	.	8gg\Jyy
8Eyy\	.	16ee\LLyy	16gg\LLyy	.	.	.	.	.	.	.	.	16gg\LLyy
.	.	16ff#yy\	16aayy\	.	.	.	.	.	.	.	.	16aayy\
[8E\Jyy	.	16eeyy\	16ggyy\	.	.	.	.	.	.	.	.	16ggyy\
.	.	[16dd\JJyy	[16ff#\JJyy	.	.	.	.	.	.	.	.	[16ff#\JJyy
=113	=113	=113	=113	=113	=113	=113	=113	=113	=113	=113	=113	=113
16A\LL]yy	.	8cc#\L]yy	8ee\L]yy	1ryy	.	1ryy	.	1ryy	.	1ryy	.	8ee\L]yy
16Gyy\	.	.	.	.	.	.	.	.	.	.	.	.
16Ayy\	.	8cc#yy\	8eeyy\	.	.	.	.	.	.	.	.	8a/Jyy
16B\JJyy	.	.	.	.	.	.	.	.	.	.	.	.
16A\LLyy	.	8cc#yy\	8eeyy\	.	.	.	.	.	.	.	.	8ff#\Lyy
16Byy\	.	.	.	.	.	.	.	.	.	.	.	.
16Ayy\	.	8cc#\Jyy	8ee\Jyy	.	.	.	.	.	.	.	.	8ee\Jyy
16G\JJyy	.	.	.	.	.	.	.	.	.	.	.	.
8F#\Lyy	.	8ff#\Lyy	8aa\Lyy	.	.	.	.	.	.	.	.	8aa\Lyy
8F#yy\	.	8ff#\Jyy	8aa\Jyy	.	.	.	.	.	.	.	.	8aa\Jyy
8F#yy\	.	16ff#\LLyy	16aa\LLyy	.	.	.	.	.	.	.	.	16aa\LLyy
.	.	16ggyy\	16bbyy\	.	.	.	.	.	.	.	.	16bbyy\
[8F#\Jyy	.	16ff#yy\	16aayy\	.	.	.	.	.	.	.	.	16aayy\
.	.	[16ee\JJyy	[16gg\JJyy	.	.	.	.	.	.	.	.	[16gg\JJyy
=114	=114	=114	=114	=114	=114	=114	=114	=114	=114	=114	=114	=114
16B\LL]yy	.	4dd\]yy	4ff#\]yy	1ryy	.	1ryy	.	1ryy	.	1ryy	.	4ff#\]yy
16Ayy\	.	.	.	.	.	.	.	.	.	.	.	.
16Byy\	.	.	.	.	.	.	.	.	.	.	.	.
16c#\JJyy	.	.	.	.	.	.	.	.	.	.	.	.
16B\LLyy	.	8ryy	8ryy	.	.	.	.	.	.	.	.	8ryy
16Ayy\	.	.	.	.	.	.	.	.	.	.	.	.
16Gyy\	.	8eeyy\	8bbyy\	.	.	.	.	.	.	.	.	8eeyy\
16F#\JJyy	.	.	.	.	.	.	.	.	.	.	.	.
8E\Lyy	.	8cc#\Lyy	8gg\Lyy	.	.	.	.	.	.	.	.	16ee\LLyy
.	.	.	.	.	.	.	.	.	.	.	.	16ff#yy\
8D\Jyy	.	8ddyy\	16ff#\Lyy	.	.	.	.	.	.	.	.	16eeyy\
.	.	.	16gg\JJyy	.	.	.	.	.	.	.	.	16dd\JJyy
!LO:TX:t=P:problem:mixed beam	!	!	!	!	!	!	!	!	!	!	!	!
8A\Lyy	.	8.ddyy\	8.ee\Lyy	.	.	.	.	.	.	.	.	(8ff#\Lyy
[8AA/Jyy	.	.	.	.	.	.	.	.	.	.	.	16ee\Lyy
.	.	[16cc#\Jkyy	[16ee\Jkyy	.	.	.	.	.	.	.	.	[16dd\JJ)yy
=115	=115	=115	=115	=115	=115	=115	=115	=115	=115	=115	=115	=115
!LO:TX:b:t=tutti	!	!	!LO:TX:b:t=Tutti	!	!	!	!	!	!	!	!	!
4D\]yy	.	4dd\]yy	4dd\]yy	8.Dyy\	Plau-	8.Ayy\	Plau-	8.f#yy\	-Plau-	8.ddyy\	-Plau-	4dd\]yy
.	.	.	.	16Dyy\	-di-	16Ayy\	-di-	16f#yy\	-di-	16ddyy\	-di-	.
4Dyy\	.	4ryy	4ryy	4Dyy\	-te	4Ayy\	-te	4f#yy\	-te	4ddyy\	-te	4ryy
4Ayy\	.	8.cc#\Lyy	8.ee\Lyy	8.A\Lyy	ſi-	8.c#yy\	ſi-	8.ayy\	ſi-	8.eeyy\	ſi-	8ryy
.	.	.	.	.	.	.	.	.	.	.	.	8aa\Lyy
.	.	16ee\Kyy	16aa\Kyy	16A\Jkyy	-de-	16c#yy\	-de-	16ayy\	-de-	16eeyy\	-de-	.
[4AAyy/	.	8eeyy\	8aayy\	4Ayy\	-ra	[4c#yy\	-ra	[4ayy\	-ra	4eeyy\	-ra	8aayy\
.	.	[8ee\Jyy	[8aa\Jyy	.	.	.	.	.	.	.	.	[8aa\Jyy
=116	=116	=116	=116	=116	=116	=116	=116	=116	=116	=116	=116	=116
4D\]yy	.	16dd\LL]yy	16ff#\LL]yy	4ryy	.	4r]yy	.	4r]yy	.	4ryy	.	16ff#\LL]yy
.	.	16cc#yy\	16eeyy\	.	.	.	.	.	.	.	.	16eeyy\
.	.	16ddyy\	16ff#yy\	.	.	.	.	.	.	.	.	16ff#yy\
.	.	16ee\Jyy	16gg\JJyy	.	.	.	.	.	.	.	.	16gg\JJyy
8ryy	.	8ff#yy\	8aa\Lyy	8ryy	.	8ryy	.	8ryy	.	8ryy	.	8aa\Lyy
8F#yy\	.	8dd\Jyy	8ff#\Jyy	8Eyy\	I	8f#yy\	I	8ayy\	I	8ddyy\	I	8ff#\Jyy
!LO:TX:t=P:problem:mixed beam	!	!	!	!	!	!	!	!	!	!	!	!
8B\Lyy	.	8gg\Lyy	8bb\Lyy	8Byy\	o-	8Byy\	o-	8gyy\	o-	8ddyy\	o-	8gg\Lyy
8Gyy\	.	8gg\Jyy	8bbyy\	8Gyy\	-per	8dyy\	-per	8gyy\	-per	8ddyy\	-per	16gg\Lyy
.	.	.	.	.	.	.	.	.	.	.	.	16ff#\JJyy
!	!	!	!	!LO:TX:t=P:problem:mixed beam	!	!	!	!	!	!	!	!
8Ayy\	.	8.ee\Lyy	8.aayy\	8A\Lyy	(ae)-	8.Ayy\	(ae)-	8.eyy\	(ae)-	8.ddyy\	(ae)-	8.ee\Lyy
[8AA/Jyy	.	.	.	[8AA/Jyy	.	.	.	.	.	.	.	.
.	.	[16ee\Jkyy	[16aa\Jkyy	.	.	[16Ayy\	-ther-	[16eyy\	-ther-	[16cc#yy\	-ther-	[16dd\Jkyy
=117	=117	=117	=117	=117	=117	=117	=117	=117	=117	=117	=117	=117
8D\L]yy	.	8dd\L]yy	8ff#\L]yy	8D\]yy	-ther-	8A\]yy	-ra	8f#\]yy	-ra	8dd\]yy	-ra	8ee\L]yy
8GGyy/	.	8eeyy\	8gg\Jyy	8GGyy/	-ra	8Byy\	/per	8gyy\	per	8eeyy\	(ae)-	8gg\Jyy
8.AAyy/	.	8.cc#yy\	8.ee\Lyy	8.AAyy/	(ae)-	8.Ayy\	(ae)-	8.eyy\	(ae)-	8.cc#yy\	-ther-	8.ee\Lyy
16AA/Jkyy	.	16cc#\Jkyy	16ee\Jkyy	16AAyy/	-ther-	16Ayy\	-ther-	16eyy\	-ther-	16cc#yy\	.	16ee\Jkyy
4Dyy\	.	4ddyy\	4ff#yy\	4Dyy\	-ra	4Ayy\	-ra/	4f#yy\	-ra	4ddyy\	-ra	4ddyy\
4ryy	.	4ryy	4ryy	4ryy	.	4ryy	.	4ryy	.	4ryy	.	4ryy
=118	=118	=118	=118	=118	=118	=118	=118	=118	=118	=118	=118	=118
!LO:TX:b:i:t=Solo	!	!	!	!	!	!	!	!	!	!	!	!
8D\Lyy	.	4ddyy\	4ff#yy\	4ryy	.	1ryy	.	1ryy	.	8ryy	.	4ddyy\
8Eyy\	.	.	.	.	.	.	.	.	.	8ayy\	-Da-	.
8F#yy\	.	8ryy	8ryy	4ryy	.	.	.	.	.	8ayy\	-te	8ryy
8E\Jyy	.	8ddyy\	8ff#yy\	.	.	.	.	.	.	8ayy\	ſo-	8ddyy\
8F#\Lyy	.	4ayy/	4ddyy\	8ryy	.	.	.	.	.	16dd\LLyy	-len-	4ff#yy\
.	.	.	.	.	.	.	.	.	.	16cc#yy\	.	.
8E\Jyy	.	.	.	8Dyy\	Da-	.	.	.	.	16ddyy\	.	.
.	.	.	.	.	.	.	.	.	.	16ee\JJyy	.	.
8F#\Lyy	.	8ryy	8ryy	8Dyy\	-te	.	.	.	.	8.ddyy\	-ni-	8ryy
[8D\Jyy	.	[8ayy/	[8ddyy\	[8Dyy\	ſo-	.	.	.	.	.	.	[8ddyy\
.	.	.	.	.	.	.	.	.	.	[16cc#yy\	-a	.
=119	=119	=119	=119	=119	=119	=119	=119	=119	=119	=119	=119	=119
!LO:TX:b:t=tutti	!	!	!LO:TX:b:i:t=Dolce	!	!	!	!	!	!	!	!	!
8G\L]yy	.	4ee\]yy	4gg\]yy	16G\LL]yy	-len-	2ryy	.	8ryy	.	8b\]yy	Tri-	4gg\]yy
.	.	.	.	16F#yy\	.	.	.	.	.	.	.	.
8Ayy\	.	.	.	16Gyy\	.	.	.	8dyy\	-Da-	8byy\	-um-	.
.	.	.	.	16A\JJyy	.	.	.	.	.	.	.	.
8Gyy\	.	8ryy	8ryy	8.Gyy\	-ni-	.	.	8dyy\	-te	8byy\	-phent	8ryy
8F#\Jyy	.	8eeyy\	8ggyy\	.	.	.	.	8dyy\	ſo-	8byy\	.	8ggyy\
.	.	.	.	16F#yy\	-a	.	.	.	.	.	.	.
8E\Lyy	.	4byy\	4eeyy\	8Eyy\	Tri-	8ryy	.	16g\LLyy	-len-	16ee\LLyy	o-	4eeyy\
.	.	.	.	.	.	.	.	16f#yy\	.	16ddyy\	.	.
8F#yy\	.	.	.	8Eyy\	-um-	8Gyy/	-Da-	16gyy\	.	16eeyy\	.	.
.	.	.	.	.	.	.	.	16a\JJyy	.	16ff#\JJyy	.	.
8Gyy\	.	8ryy	8ryy	8Eyy\	-phent	8Gyy/	-te	8.gyy\	-ni-	8.eeyy\	-mni-	8ryy
[8E\Jyy	.	[8byy\	[8eeyy\	[8Eyy\	.	[8Gyy/	ſo-	.	.	.	.	[8eeyy\
.	.	.	.	.	.	.	.	[16f#yy\	-a	[16ddyy\	.	.
=120	=120	=120	=120	=120	=120	=120	=120	=120	=120	=120	=120	=120
8A\L]yy	.	4cc#\]yy	4aa\]yy	16A\LL]yy	O-	16c#\LL]yy	-len-	8.e\]yy	Tri-	8cc#\]yy	-a	4ee\]yy
.	.	.	.	16Gyy\	.	16Byy\	.	.	.	.	.	.
8Byy\	.	.	.	16Ayy\	.	16c#yy\	.	.	.	8cc#yy\	Tri-	.
.	.	.	.	16B\JJyy	.	16d\JJyy	.	16eyy\	-um-	.	.	.
8Ayy\	.	8ryy	8ryy	8.Ayy\	-mni-	8.c#yy\	-ni-	8eyy\	-phent	8cc#yy\	-um-	8ryy
8G\Jyy	.	8cc#yy\	8aayy\	.	.	.	.	8eyy\	.	8cc#yy\	-phent	8eeyy\
.	.	.	.	16Gyy\	-a	16Byy\	-a	.	.	.	.	.
8F#\Lyy	.	4ddyy\	4ff#yy\	8F#yy\	/Tri-	8Ayy\	Tri-	16a\LLyy	O-	16ff#\LLyy	O-	4ddyy\
.	.	.	.	.	.	.	.	16gyy\	.	16eeyy\	.	.
8Gyy\	.	.	.	8F#yy\	-um-	8Ayy\	-um-	16ayy\	.	16ff#yy\	.	.
.	.	.	.	.	.	.	.	16b\JJyy	.	16gg\JJyy	.	.
8Ayy\	.	8ryy	8ryy	8F#yy\	-phent	8Ayy\	-phent	16a\LLyy	.	16ff#\LLyy	.	8ryy
.	.	.	.	.	.	.	.	16byy\	.	16ggyy\	.	.
8F#\Jyy	.	[8ddyy\	[8ff#yy\	[8F#yy\	.	[8Ayy\	.	16ayy\	.	16ff#yy\	.	[8ff#yy\
.	.	.	.	.	.	.	.	[16g\JJyy	.	[16ee\JJyy	.	.
=121	=121	=121	=121	=121	=121	=121	=121	=121	=121	=121	=121	=121
!LO:TX:t=P:problem:mixed beam	!	!	!	!	!	!	!	!	!	!	!	!
8B\Lyy	.	4dd\]yy	16gg\LL]yy	8B\L]yy	O-	4B\]yy	-o-	8f#\L]yy	.	8dd\]yy	.	8ee\L]yy
.	.	.	16aayy\	.	.	.	.	.	.	.	.	.
8Gyy\	.	.	16ff#yy\	8G\Jyy	.	.	.	16g\Lyy	.	16ddyy\	-mni-	16ff#\Lyy
.	.	.	16gg\JJyy	.	.	.	.	16f#\JJyy	.	16ddyy\	-a	16ee\JJyy
8Ayy\	.	8.dd\Lyy	8.ee\Lyy	8.Ayy\	-mni-	8.Ayy\	-mni-	8.eyy\	.	8.ddyy\	-O-	8ff#\Lyy
8AA/Jyy	.	.	.	.	.	.	.	.	.	.	.	16ee\Lyy
.	.	16cc#\Jkyy	16ee\Jkyy	16AAyy/	.	16Ayy\	-a	16eyy\	-mni-	16cc#yy\	-mni-	16dd\JJyy
!LO:TX:b:i:t=Solo	!	!	!	!	!	!	!	!	!	!	!	!
8D\Lyy	.	4ddyy\	4ff#yy\	4Dyy\	-a/	8Ayy\	Da-	4eyy\	-a	8ddyy\	-a	4ddyy\
8Eyy\	.	.	.	.	.	8F#yy/	.	.	.	8ayy\	Da-	.
8F#yy\	.	4ryy	4ryy	4ryy	.	8F#yy/	-te	4ryy	.	8ayy\	-te	4ryy
[8D\Jyy	.	.	.	.	.	[8F#yy/	ſo-	.	.	[8ayy\	ſo-	.
=122	=122	=122	=122	=122	=122	=122	=122	=122	=122	=122	=122	=122
8BB/L]yy	.	1ryy	1ryy	1ryy	.	16B\LL]yy	-len-	1ryy	.	16dd\LL]yy	-len-	1ryy
.	.	.	.	.	.	16Ayy\	.	.	.	16cc#yy\	.	.
8C#yy/	.	.	.	.	.	16Byy\	.	.	.	16ddyy\	.	.
.	.	.	.	.	.	16c#\JJyy	.	.	.	16ee\JJyy	.	.
8Dyy\	.	.	.	.	.	8.Byy\	-ni-	.	.	8.ddyy\	-ni-	.
8BB/Jyy	.	.	.	.	.	.	.	.	.	.	.	.
.	.	.	.	.	.	16Ayy\	-a	.	.	16cc#yy\	-a	.
8E\Lyy	.	.	.	.	.	8Gyy/	Da-	.	.	8byy\	Tri-	.
8F#yy\	.	.	.	.	.	8Gyy/	-te	.	.	8byy\	-um-	.
8Eyy\	.	.	.	.	.	8Gyy/	ſo-	.	.	8byy\	-phent	.
[8D\Jyy	.	.	.	.	.	[8Gyy/	-len-	.	.	[8byy\	.	.
=123	=123	=123	=123	=123	=123	=123	=123	=123	=123	=123	=123	=123
8C#/L]yy	.	4ff#yy\	4aayy\	1ryy	.	16c#\LL]yy	.	1ryy	.	(16ee\LL]yy	O-	4aayy\
.	.	.	.	.	.	16Byy\	.	.	.	16ddyy\	.	.
8BByy/	.	.	.	.	.	16c#yy\	.	.	.	16eeyy\	.	.
.	.	.	.	.	.	16d\JJyy	.	.	.	16ff#\JJ)yy	.	.
8C#yy/	.	8ryy	8ryy	.	.	16c#\LLyy	.	.	.	16ee\LLyy	.	8ryy
.	.	.	.	.	.	16dyy\	.	.	.	16ff#yy\	.	.
8AA/Jyy	.	8ff#yy\	8aa\Lyy	.	.	16c#yy\	.	.	.	16eeyy\	.	8aayy\
.	.	.	.	.	.	16B\JJyy	.	.	.	16dd\JJyy	.	.
8C#/Lyy	.	4ggyy\	8bbyy\	.	.	8A\Lyy	.	.	.	16cc#\LLyy	.	4bbyy\
.	.	.	.	.	.	.	.	.	.	16eeyy\	.	.
8Dyy\	.	.	8bb\Jyy	.	.	16B\Lyy	.	.	.	16ddyy\	.	.
.	.	.	.	.	.	16A\JJyy	.	.	.	16cc#\JJyy	.	.
8Eyy\	.	8ryy	8ryy	.	.	8.Ayy\	-ni-	.	.	8.byy\	.	8ryy
[8EE/Jyy	.	[8ggyy\	[8bbyy\	.	.	.	.	.	.	.	.	[8ggyy\
.	.	.	.	.	.	[16G#Xyy/	-a	.	.	[16byy\	-mni-	.
=124	=124	=124	=124	=124	=124	=124	=124	=124	=124	=124	=124	=124
!LO:TX:b:t=tutti	!	!	!	!	!	!	!	!	!	!	!	!
8D\L]yy	.	4ee\]yy	4gg\]yy	8ryy	.	8A\]yy	.	2ryy	.	4a\]yy	-a	4ee\]yy
8Eyy\	.	.	.	8Dyy\	Da-	8F#yy/	Da-	.	.	.	.	.
8F#yy\	.	8ryy	8ryy	8Dyy\	-te	8F#yy/	-te	.	.	4ryy	.	8ryy
8D\Jyy	.	8eeyy\	8ggyy\	8Dyy\	ſo-	8F#yy/	ſo-	.	.	.	.	8eeyy\
8G\Lyy	.	4eeyy\	4aayy\	16G\LLyy	-len-	16B\LLyy	-len-	8ryy	.	8ryy	.	4eeyy\
.	.	.	.	16F#yy\	.	16Ayy\	.	.	.	.	.	.
8Ayy\	.	.	.	16Gyy\	.	16Byy\	.	8dyy\	Da-	8byy\	Da-	.
.	.	.	.	16A\JJyy	.	16c#\JJyy	.	.	.	.	.	.
8Gyy\	.	8ryy	8ryy	8.Gyy\	-ni-	8.Byy\	-ni-	8dyy\	-te	8byy\	-te	8ryy
[8F#\Jyy	.	[8cc#yy\	[8eeyy\	.	.	.	.	[8dyy\	ſo-	[8byy\	ſo-	[8eeyy\
.	.	.	.	[16F#yy\	-a	[16Ayy\	-a	.	.	.	.	.
=125	=125	=125	=125	=125	=125	=125	=125	=125	=125	=125	=125	=125
8E\L]yy	.	4dd\]yy	4ff#\]yy	8E\]yy	Tri-	8G/]yy	Da-	16g\LL]yy	-len-	16ee\LL]yy	-len-	4ff#\]yy
.	.	.	.	.	.	.	.	16f#yy\	.	16ddyy\	.	.
8F#yy\	.	.	.	8Eyy\	-um-	8Gyy/	-te	16gyy\	.	16eeyy\	.	.
.	.	.	.	.	.	.	.	16a\JJyy	.	16ff#\JJyy	.	.
8Gyy\	.	8ryy	8ryy	8Eyy\	-phent	8Gyy/	ſo-	8.gyy\	-ni-	8.eeyy\	-ni-	8ryy
8F#\Jyy	.	8ff#yy\	8aayy\	8Eyy\	.	8Gyy/	.	.	.	.	.	8ff#yy\
.	.	.	.	.	.	.	.	16f#yy\	-a	16ddyy\	-a	.
8A\Lyy	.	8ee\Lyy	8gg\Lyy	16A\LLyy	-o-	16c#\LLyy	-len-	8eyy\	.	8cc#yy\	-Tri-	16gg\LLyy
.	.	.	.	16Gyy\	.	16Byy\	.	.	.	.	.	16aayy\
8Byy\	.	16ee\Lyy	16gg\Lyy	16Ayy\	.	16c#yy\	.	8eyy\	.	8cc#yy\	-um-	16ff#yy\
.	.	16dd\JJyy	16ff#\JJyy	16B\JJyy	.	16d\JJyy	.	.	.	.	.	16gg\JJyy
8Ayy\	.	8.dd\Lyy	8.ee\Lyy	8.A\Lyy	-mni-	8.c#yy\	-ni-	8eyy\	.	8cc#yy\	-phent	8.ee\Lyy
[8G\Jyy	.	.	.	.	.	.	.	8eyy\	.	8cc#yy\	.	.
.	.	16cc#\Jkyy	16ee\Jkyy	16G\Jkyy	.	16Byy\	.	.	.	.	.	16ee\Jkyy
=126	=126	=126	=126	=126	=126	=126	=126	=126	=126	=126	=126	=126
!	!	!LO:SIC:o=:v:nadmiarowy takt w organach	!LO:SIC:o=:v:nadmiarowy takt w organach	!LO:SIC:o=:v:nadmiarowy takt w organach	!	!LO:SIC:o=:v:nadmiarowy takt w organach	!	!LO:SIC:o=:v:nadmiarowy takt w organach	!	!LO:SIC:o=:v:nadmiarowy takt w organach	!	!LO:SIC:o=:v:nadmiarowy takt w organach
8F#\L]yy	.	1ryy	1ryy	1ryy	.	1ryy	.	1ryy	.	1ryy	.	1ryy
8Gyy\	.	.	.	.	.	.	.	.	.	.	.	.
8Ayy\	.	.	.	.	.	.	.	.	.	.	.	.
8F#\Jyy	.	.	.	.	.	.	.	.	.	.	.	.
!LO:TX:t=P:problem:mixed beam	!	!	!	!	!	!	!	!	!	!	!	!
8B\Lyy	.	.	.	.	.	.	.	.	.	.	.	.
8Gyy\	.	.	.	.	.	.	.	.	.	.	.	.
8Ayy\	.	.	.	.	.	.	.	.	.	.	.	.
[8AA/Jyy	.	.	.	.	.	.	.	.	.	.	.	.
=127	=127	=127	=127	=127	=127	=127	=127	=127	=127	=127	=127	=127
8D\L]yy	.	4ddyy\	4ff#yy\	4F#yy\	-a	4Ayy\	-a	16a\LLyy	-o-	16ff#\LLyy	O-	4ddyy\
.	.	.	.	.	.	.	.	16gyy\	.	16eeyy\	.	.
8Eyy\	.	.	.	.	.	.	.	16ayy\	.	16ff#yy\	.	.
.	.	.	.	.	.	.	.	16b\JJyy	.	16gg\JJyy	.	.
8F#yy\	.	8ryy	8ryy	8ryy	.	8ryy	.	16a\LLyy	.	16ff#\LLyy	.	8ryy
.	.	.	.	.	.	.	.	16byy\	.	16ggyy\	.	.
8D\Jyy	.	8ff#yy\	8ggyy\	8F#yy\	/Tri-	8Ayy\	Tri-	16ayy\	.	16ff#yy\	.	8ddyy\
.	.	.	.	.	.	.	.	16g\JJyy	.	16ee\JJyy	.	.
!LO:TX:t=P:problem:mixed beam	!	!	!	!	!	!	!	!	!	!	!	!
8G\Lyy	.	8ee\Lyy	8gg\Lyy	8Byy\	-um-	8Byy\	-um-	8g\Lyy	.	8ddyy\	.	16gg\LLyy
.	.	.	.	.	.	.	.	.	.	.	.	16aayy\
8Eyy\	.	16ee\Lyy	16gg\Lyy	8Gyy\	-phent	8Byy\	-phent	16g\Lyy	.	16ddyy\	-mni-	16ff#yy\
.	.	16dd\JJyy	16ff#\JJyy	.	.	.	.	16f#\JJyy	.	16ddyy\	-a	16gg\JJyy
8Ayy\	.	8dd\Lyy	8.ee\Lyy	8.Ayy\	o-	8.Ayy\	o-	8.eyy\	.	8.ddyy\	o-	8.ee\Lyy
[8AA/Jyy	.	[8cc#\Jyy	.	.	.	.	.	.	.	.	.	.
.	.	.	[16ee\Jkyy	[16AAyy/	-mni-	[16Ayy\	-mni-	[16eyy\	-mni-	[16cc#yy\	-mni-	[16ee\Jkyy
=128	=128	=128	=128	=128	=128	=128	=128	=128	=128	=128	=128	=128
4D\]yy	.	4dd\]yy	4ff#\]yy	4D\]yy	-a/	4B\]yy	-a	4f#\]yy	-a	4dd\]yy	-a	4dd\]yy
4ryy	.	4ryy	4ryy	4ryy	.	4ryy	.	4ryy	.	4ryy	.	4ryy
2ryy	.	2ryy	2ryy	2ryy	.	2ryy	.	2ryy	.	2ryy	.	2ryy
!	!	!LO:PB:g=original	!LO:LB:g=original	!	!	!	!	!LO:LB:g=original	!	!	!	!LO:PB:g=original
=129||	=129||	=129||	=129||	=129||	=129||	=129||	=129||	=129||	=129||	=129||	=129||	=129||
*M6/8	*	*M6/8	*M6/8	*M6/8	*	*M6/8	*	*M6/8	*	*M6/8	*	*M6/8
!LO:TX:b:i:t=Dicite ſuperi	!	!	!	!	!	!	!	!	!	!	!	!
!	!	!	!	!LO:N:vis=00	!	!LO:N:vis=00	!	!LO:N:vis=0	!	!LO:N:vis=00	!	!LO:N:vis=00
4D/	.	8dd\L	8ff#\L	0.r	.	0.r	.	1.r	.	0.r	.	0.r
.	.	16dd\L	16ff#\L	.	.	.	.	.	.	.	.	.
.	.	16ee\J	16gg\J	.	.	.	.	.	.	.	.	.
8r	.	8ff#\J	8aa\J	.	.	.	.	.	.	.	.	.
8G\L	.	4b/	4dd\	.	.	.	.	.	.	.	.	.
16G\L	.	.	.	.	.	.	.	.	.	.	.	.
16A\J	.	.	.	.	.	.	.	.	.	.	.	.
8B\J	.	8r	8r	.	.	.	.	.	.	.	.	.
=130	=130	=130	=130	=130	=130	=130	=130	=130	=130	=130	=130	=130
4E\	.	8cc#\L	8ee\L	.	.	.	.	.	.	.	.	.
.	.	16cc#\L	16ee\L	.	.	.	.	.	.	.	.	.
.	.	16dd\J	16ff#\J	.	.	.	.	.	.	.	.	.
8r	.	8ee\J	8gg\J	.	.	.	.	.	.	.	.	.
!LO:TX:b:t=Verte	!	!	!	!	!	!	!	!	!	!	!	!
!LO:PB:g=original	!	!	!	!	!	!	!	!	!	!	!	!
8A\L	.	4a/	4cc#\	.	.	.	.	.	.	.	.	.
16A\L	.	.	.	.	.	.	.	.	.	.	.	.
16G\	.	.	.	.	.	.	.	.	.	.	.	.
16F#\	.	8r	8r	.	.	.	.	.	.	.	.	.
16E\JJ	.	.	.	.	.	.	.	.	.	.	.	.
=131	=131	=131	=131	=131	=131	=131	=131	=131	=131	=131	=131	=131
4D/	.	8dd\L	8ff#\L	.	.	.	.	2.r	.	.	.	.
.	.	16dd\L	16ff#\L	.	.	.	.	.	.	.	.	.
.	.	16ee\J	16gg\J	.	.	.	.	.	.	.	.	.
8r	.	8ff#\J	8aa\J	.	.	.	.	.	.	.	.	.
8.G\L	.	8gg\L	8bb\L	.	.	.	.	.	.	.	.	.
.	.	16gg\L	16bb\L	.	.	.	.	.	.	.	.	.
16A\L	6	16ff#\J	16aa\J	.	.	.	.	.	.	.	.	.
16B\	.	8ee\J	8gg\J	.	.	.	.	.	.	.	.	.
16c#\JJ	.	.	.	.	.	.	.	.	.	.	.	.
=132	=132	=132	=132	=132	=132	=132	=132	=132	=132	=132	=132	=132
!LO:TX:t=P:problem:mixed beam	!	!	!	!	!	!	!	!	!	!	!	!
8d\L	.	8dd\L	16ff#\LL	.	.	.	.	4.r	.	.	.	.
.	.	.	16ee\JJ	.	.	.	.	.	.	.	.	.
16G\L	.	8.dd\	8.ee\L	.	.	.	.	.	.	.	.	.
16A\J	.	.	.	.	.	.	.	.	.	.	.	.
8AA/J	.	.	.	.	.	.	.	.	.	.	.	.
.	.	16cc#\Jk	16dd\Jk	.	.	.	.	.	.	.	.	.
!	!	!LO:TX:b:i:t=Dicite ſuperi Alto	!	!	!	!	!	!LO:TX:b:i:t=solo	!	!	!	!
4D/	.	8dd\	8cc#\	.	.	.	.	8.f#\	Di-	.	.	.
.	.	8r	8r	.	.	.	.	.	.	.	.	.
.	.	.	.	.	.	.	.	16g\	-cu-	.	.	.
8r	.	8r	8r	.	.	.	.	8a\	-te	.	.	.
=133	=133	=133	=133	=133	=133	=133	=133	=133	=133	=133	=133	=133
!	!	!	!LO:SIC:o:s=:v:Doklejona karta, pauzy niewidoczne	!	!	!	!	!	!	!	!	!
!	!	!LO:N:vis=00	!	!LO:N:vis=00	!	!LO:N:vis=00	!	!	!	!LO:N:vis=00	!	!LO:N:vis=0
8G\L	.	0.r	2.ryy	0.r	.	0.r	.	8.d\	ſu-	0.r	.	1.r
16G\L	.	.	.	.	.	.	.	.	.	.	.	.
16A\J	.	.	.	.	.	.	.	16d\	-pe-	.	.	.
8B\J	.	.	.	.	.	.	.	8d\	-ri	.	.	.
4E\	.	.	.	.	.	.	.	8g\	in-	.	.	.
.	.	.	.	.	.	.	.	8a\	-ter-	.	.	.
8r	.	.	.	.	.	.	.	8b\	-ris	.	.	.
=134	=134	=134	=134	=134	=134	=134	=134	=134	=134	=134	=134	=134
8A\L	.	.	2.ryy	.	.	.	.	8e\	(ae)-	.	.	.
16A\L	.	.	.	.	.	.	.	8e\	-the-	.	.	.
16G\	.	.	.	.	.	.	.	.	.	.	.	.
16F#\	.	.	.	.	.	.	.	8e\	-ri	.	.	.
16E\JJ	.	.	.	.	.	.	.	.	.	.	.	.
4D/	.	.	.	.	.	.	.	8.a\	ful-	.	.	.
.	.	.	.	.	.	.	.	16g\	-gi-	.	.	.
8r	.	.	.	.	.	.	.	8f#\	-da	.	.	.
!	!	!	!	!	!	!	!	!LO:LB:g=original	!	!	!	!
=135	=135	=135	=135	=135	=135	=135	=135	=135	=135	=135	=135	=135
4G\	6	.	2.ryy	.	.	.	.	8e\L	na-	.	.	2.r
.	.	.	.	.	.	.	.	8f#\J	.	.	.	.
8E\	.	.	.	.	.	.	.	8g\	-scit	.	.	.
!LO:TX:t=P:problem:mixed beam	!	!	!	!	!	!	!	!	!	!	!	!
8D\L	.	.	.	.	.	.	.	(16f#\LL	lu-	.	.	.
.	.	.	.	.	.	.	.	16e\JJ)	.	.	.	.
8A\	.	.	.	.	.	.	.	8.e\	-mi-	.	.	.
8AA/J	.	.	.	.	.	.	.	.	.	.	.	.
.	.	.	.	.	.	.	.	16d\	.	.	.	.
!LO:LB:g=original	!	!	!	!	!	!	!	!	!	!	!	!
=136	=136	=136	=136	=136	=136	=136	=136	=136	=136	=136	=136	=136
!	!	!	!LO:SIC:o:s=:v:doklejka	!	!	!	!	!	!	!	!	!
8D/	.	.	8ee\L	.	.	.	.	8d\	-na	.	.	8ff#\L
8r	.	.	16ee\L	.	.	.	.	8r	.	.	.	16ff#\L
.	.	.	16ff#\J	.	.	.	.	.	.	.	.	16gg\J
8r	.	.	8gg\J	.	.	.	.	8r	.	.	.	8aa\J
!	!	!	!	!	!	!	!	!LO:N:vis=2	!	!	!	!
8G\L	.	.	8cc#\	.	.	.	.	4.r	.	.	.	8dd\
16G\L	.	.	8r	.	.	.	.	.	.	.	.	8r
16A\J	.	.	.	.	.	.	.	.	.	.	.	.
8B\J	.	.	8r	.	.	.	.	.	.	.	.	8r
=137	=137	=137	=137	=137	=137	=137	=137	=137	=137	=137	=137	=137
!	!	!LO:N:vis=0	!	!LO:N:vis=00	!	!LO:N:vis=0	!	!LO:N:vis=0	!	!LO:N:vis=00	!	!
8E\	.	1.r	8ff#\L	0.r	.	1.r	.	1.r	.	0.r	.	8gg\L
8r	.	.	16ff#\L	.	.	.	.	.	.	.	.	16gg\L
.	.	.	16gg\J	.	.	.	.	.	.	.	.	16aa\J
8r	.	.	8aa\J	.	.	.	.	.	.	.	.	8bb\J
!	!	!	!LO:LB:g=original	!	!	!	!	!	!	!	!	!
8A\L	.	.	8dd\	.	.	.	.	.	.	.	.	8ee\
16A\L	.	.	8r	.	.	.	.	.	.	.	.	8r
16G\	.	.	.	.	.	.	.	.	.	.	.	.
16F#\	.	.	8r	.	.	.	.	.	.	.	.	8r
16E\JJ	.	.	.	.	.	.	.	.	.	.	.	.
=138	=138	=138	=138	=138	=138	=138	=138	=138	=138	=138	=138	=138
4D/	.	.	8gg\L	.	.	.	.	.	.	.	.	8aa\L
.	.	.	16ee\L	.	.	.	.	.	.	.	.	16ff#\L
.	.	.	16ff#\J	.	.	.	.	.	.	.	.	16gg\J
8r	.	.	8gg\J	.	.	.	.	.	.	.	.	8aa\J
8.D\L	.	.	8.gg\L	.	.	.	.	.	.	.	.	8.aa\L
16E\K	.	.	16ff#\K	.	.	.	.	.	.	.	.	16gg\K
8F#\J	.	.	8ee\J	.	.	.	.	.	.	.	.	8ff#\J
=139	=139	=139	=139	=139	=139	=139	=139	=139	=139	=139	=139	=139
!LO:TX:t=P:problem:mixed beam	!	!	!	!	!	!	!	!	!	!	!	!
8G\L	.	2.r	16aa\LL	.	.	2.r	.	2.r	.	.	.	16bb\LL
.	.	.	16ff#\JJ	.	.	.	.	.	.	.	.	16gg\JJ
8A\	.	.	8.dd\L	.	.	.	.	.	.	.	.	8.ee\L
8AA/J	.	.	.	.	.	.	.	.	.	.	.	.
.	.	.	16cc#\Jk	.	.	.	.	.	.	.	.	16dd\Jk
4D\	.	.	8cc#\	.	.	.	.	.	.	.	.	8dd\
!	!	!	!	!	!	!	!	!	!	!	!	!LO:LB;g=original
.	.	.	8r	.	.	.	.	.	.	.	.	8r
8E\	.	.	8r	.	.	.	.	.	.	.	.	8r
=140	=140	=140	=140	=140	=140	=140-	=140	=140-	=140	=140	=140	=140
!	!	!LO:N:vis=2	!LO:N:vis=2	!	!	!LO:SIC:o=:v:brak pauzy	!	!LO:SIC:o=:v:brak pauzy	!	!	!	!LO:N:vis=00
4F#\	6	4.r	4.r	.	.	4.ryy	.	4.ryy	.	.	.	0.r
8G\	.	.	.	.	.	.	.	.	.	.	.	.
4D/	.	16r	16r	.	.	8f#\	Vi-	8a\	Vi-	.	.	.
!	!	!LO:LB:g=original	!	!	!	!	!	!	!	!	!	!
.	.	16ff#\LL	16aa\LL	.	.	.	.	.	.	.	.	.
.	.	16ff#\	16aa\	.	.	8.d\	-ve	8.f#\	-ve	.	.	.
.	.	16ff#\	16aa\	.	.	.	.	.	.	.	.	.
8DD/	.	16ff#\	16aa\	.	.	.	.	.	.	.	.	.
.	.	16ff#\JJ	16aa\JJ	.	.	16e\	o	16g\	O	.	.	.
=141	=141	=141	=141	=141	=141	=141	=141	=141	=141	=141	=141	=141
!	!	!LO:TX:t=P:problem:mixed beam	!LO:TX:t=P:problem:mixed beam	!	!	!	!	!	!	!	!	!
!	!	!	!	!LO:N:vis=00	!	!	!	!	!	!LO:N:vis=00	!	!
16r	.	8ff#\L	8aa\L	0.r	.	8f#\	San-	8a\	San-	0.r	.	.
16D/LL	.	.	.	.	.	.	.	.	.	.	.	.
16D/	.	8f#/J	8a/J	.	.	8d\	.	8f#\	.	.	.	.
16D/	.	.	.	.	.	.	.	.	.	.	.	.
16D/	.	8r	8r	.	.	8g\	-cte	8b\	-cte	.	.	.
16D/JJ	.	.	.	.	.	.	.	.	.	.	.	.
!LO:TX:t=P:problem:mixed beam	!	!	!	!	!	!	!	!	!	!	!	!
*	*	*	*	*	*	*	*ij	*	*ij	*	*	*
8E\L	.	16r	16r	.	.	8.f#\L	San-	8.a\	San-	.	.	.
.	.	16ee\LL	16gg\LL	.	.	.	.	.	.	.	.	.
8EE/J	.	16ee\	16gg\	.	.	.	.	.	.	.	.	.
.	.	16ee\	16gg\	.	.	16e\Jk	.	16g\	.	.	.	.
8r	.	16ee\	16gg\	.	.	8d\	-cte	8f#\	-cte	.	.	.
.	.	16ee\JJ	16gg\JJ	.	.	.	.	.	.	.	.	.
*	*	*	*	*	*	*	*Xij	*	*XIJ	*	*	*
!	!	!	!	!	!	!	!	!LO:LB:g=original	!	!	!	!
=142	=142	=142	=142	=142	=142	=142-	=142	=142	=142	=142	=142	=142
!	!	!LO:TX:t=P:problem:mixed beam	!LO:TX:t=P:problem:mixed beam	!LO:N:vis=0	!	!LO:N:vis=0	!	!	!	!	!	!
16r	.	8ee\L	8gg\L	.	.	1.r	.	1.r	.	.	.	.
16E\LL	.	.	.	.	.	.	.	.	.	.	.	.
16E\	.	8e/J	8g/J	.	.	.	.	.	.	.	.	.
16E\	.	.	.	.	.	.	.	.	.	.	.	.
16E\	.	8r	8r	.	.	.	.	.	.	.	.	.
16E\JJ	.	.	.	.	.	.	.	.	.	.	.	.
!LO:LB:g=original	!	!	!	!	!	!	!	!	!	!	!	!
!LO:TX:t=P:problem:mixed beam	!	!	!	!	!	!	!	!	!	!	!	!
8F#\L	6	16r	16r	.	.	.	.	.	.	.	.	.
.	.	16ff#\LL	16aa\LL	.	.	.	.	.	.	.	.	.
8FF#/J	.	16ff#\	16aa\	.	.	.	.	.	.	.	.	.
.	.	16ff#\	16aa\	.	.	.	.	.	.	.	.	.
8r	.	16ff#\	16aa\	.	.	.	.	.	.	.	.	.
.	.	16ff#\JJ	16aa\JJ	.	.	.	.	.	.	.	.	.
=143	=143	=143	=143	=143	=143	=143	=143	=143	=143	=143	=143	=143
8r	.	8.ff#\L	8.aa\L	.	.	.	.	.	.	.	.	.
16D\LL	.	.	.	.	.	.	.	.	.	.	.	.
16E\J	.	16ee\K	16gg\K	.	.	.	.	.	.	.	.	.
8F#\J	6	8dd\J	8ff#\J	.	.	.	.	.	.	.	.	.
!LO:TX:t=P:problem:mixed beam	!	!	!	!	!	!	!	!	!	!	!	!
8G\L	6 5	8dd\L	16bb\LL	.	.	.	.	.	.	.	.	.
.	.	.	16ff#\JJ	.	.	.	.	.	.	.	.	.
8A\	.	8.dd\	8ee\L	.	.	.	.	.	.	.	.	.
8AA/J	4	.	8dd\J	.	.	.	.	.	.	.	.	.
.	3	16cc#\Jk	.	.	.	.	.	.	.	.	.	.
=144	=144	=144	=144	=144	=144	=144	=144	=144	=144	=144	=144	=144
!	!	!	!	!	!	!	!	!	!	!	!	!LO:N:vis=00
4D\	.	8dd\	8dd\	.	.	2.r	.	2.r	.	.	.	0.r
.	.	8r	8r	.	.	.	.	.	.	.	.	.
8E\	.	8r	8r	.	.	.	.	.	.	.	.	.
!	!	!LO:N:vis=2	!LO:N:vis=2	!	!	!	!	!	!	!	!	!
4F#\	6	4.r	4.r	.	.	.	.	.	.	.	.	.
8G\	.	.	.	.	.	.	.	.	.	.	.	.
!	!	!LO:LB:g=original	!	!	!	!LO:LB:g=original	!	!	!	!	!	!
=145	=145	=145	=145	=145	=145	=145	=145	=145-	=145	=145	=145	=145
!	!	!	!	!LO:N:vis=00	!	!	!	!	!	!LO:N:vis=00	!	!
8E\	.	16r	16r	0.r	.	8f#\	Vi-	8a\	Vi-	0.r	.	.
.	.	16ff#\LL	16aa\LL	.	.	.	.	.	.	.	.	.
8r	.	16ff#\	16aa\	.	.	8.d\	-ve	8.f#\	-ve	.	.	.
.	.	16ff#\	16aa\	.	.	.	.	.	.	.	.	.
8r	.	16ff#\	16aa\	.	.	.	.	.	.	.	.	.
.	.	16ff#\JJ	16aa\JJ	.	.	16e\	San-	16g\	o	.	.	.
!	!	!LO:TX:t=P:problem:mixed beam	!LO:TX:t=P:problem:mixed beam	!	!	!	!	!	!	!	!	!
16r	.	8ff#\L	8aa\L	.	.	8f#\	.	8a\	.	.	.	.
16D\LL	.	.	.	.	.	.	.	.	.	.	.	.
16D\	.	8f#/J	8a/J	.	.	8.d\	.	8.f#\	.	.	.	.
16D\	.	.	.	.	.	.	.	.	.	.	.	.
16D\	.	8r	8r	.	.	.	.	.	.	.	.	.
16D\JJ	.	.	.	.	.	16g\	-cte	16b\	-cte	.	.	.
!LO:LB:g=original	!	!	!LO:LB:g=original	!	!	!	!	!	!	!	!	!
=146	=146	=146	=146	=146	=146	=146	=146	=146	=146	=146	=146	=146
!LO:TX:t=P:problem:mixed beam	!	!	!	!	!	!	!	!	!	!	!	!
*	*	*	*	*	*	*	*ij	*	*ij	*	*	*
8E\L	.	16r	16r	.	.	8.f#\L	San-	(8.a\L	San-	.	.	.
.	.	16ee\LL	16gg\LL	.	.	.	.	.	.	.	.	.
8EE/J	.	16ee\	16gg\	.	.	.	.	.	.	.	.	.
.	.	16ee\	16gg\	.	.	16e\Jk	.	16g\Jk)	.	.	.	.
8r	.	16ee\	16gg\	.	.	8d\	-cte	8f#\	-cte	.	.	.
.	.	16ee\JJ	16gg\JJ	.	.	.	.	.	.	.	.	.
*	*	*	*	*	*	*	*Xij	*	*Xij	*	*	*
!	!	!LO:TX:t=P:problem:mixed beam	!LO:TX:t=P:problem:mixed beam	!	!	!LO:N:vis=2	!	!LO:N:vis=2	!	!	!	!
16r	.	8ee\L	8gg\L	.	.	4.r	.	4.r	.	.	.	.
16E\LL	.	.	.	.	.	.	.	.	.	.	.	.
16E\	.	8e/J	8g/J	.	.	.	.	.	.	.	.	.
16E\	.	.	.	.	.	.	.	.	.	.	.	.
16E\	.	8r	8r	.	.	.	.	.	.	.	.	.
16E\JJ	.	.	.	.	.	.	.	.	.	.	.	.
=147	=147	=147	=147	=147	=147	=147	=147	=147	=147	=147	=147	=147
!LO:TX:t=P:problem:mixed beam	!	!	!	!	!LO:N:vis=0	!	!	!	!	!	!	!
8F#\L	6	16r	16r	.	.	1.r	.	2.r	.	.	.	.
.	.	16ff#\LL	16aa\LL	.	.	.	.	.	.	.	.	.
8FF#/J	.	16ff#\	16aa\	.	.	.	.	.	.	.	.	.
.	.	16ff#\	16aa\	.	.	.	.	.	.	.	.	.
8r	.	16ff#\	16aa\	.	.	.	.	.	.	.	.	.
.	.	16ff#\JJ	16aa\JJ	.	.	.	.	.	.	.	.	.
8.D\L	.	8.ff#\L	8.aa\L	.	.	.	.	.	.	.	.	.
16E\K	.	16ee\K	16gg\K	.	.	.	.	.	.	.	.	.
8F#\J	.	8dd\J	8ff#\J	.	.	.	.	.	.	.	.	.
=148	=148	=148	=148	=148	=148	=148	=148	=148	=148	=148	=148	=148
!LO:SIC:o:s=:v:dodatkowy takt w tenorze	!	!LO:SIC:o:s=:v:dodatkowy takt w tenorze	!LO:SIC:o:s=:v:dodatkowy takt w tenorze	!	!	!	!	!LO:SIC:o:s=:v:dodatkowy takt w tenorze	!	!LO:SIC:o:s=:v:dodatkowy takt w tenorze	!	!LO:SIC:o:s=:v:dodatkowy takt w tenorze
2.ryy	.	2.ryy	2.ryy	.	.	.	.	2.ryy	.	.	.	2.ryy
=149	=149	=149	=149	=149	=149	=149	=149	=149-	=149	=149	=149	=149
!LO:TX:t=P:problem:mixed beam	!	!	!	!LO:N:vis=0	!	!	!	!	!	!	!	!
8G\L	6 5	8dd\L	16bb\LL	1.r	.	8r	.	8r	.	2.ryy	.	2.r
.	.	.	16ff#\JJ	.	.	.	.	.	.	.	.	.
8A\	.	8.dd\	8.ee\L	.	.	8r	.	8r	.	.	.	.
8AA/J	4	.	.	.	.	8c#\	O	8e\	O	.	.	.
.	3	16cc#\Jk	16dd\Jk	.	.	.	.	.	.	.	.	.
8D\	.	8dd\	8dd\	.	.	8d\	mag-	8f#\	mag-	.	.	.
8r	.	8r	8r	.	.	(16e\LL	-ne	16g\LL	-ne	.	.	.
.	.	.	.	.	.	16d\JJ)	.	16f#\JJ	.	.	.	.
8A\	.	8r	8r	.	.	8c#\	.	8e\	-Vi-	.	.	.
=150	=150	=150	=150	=150	=150	=150	=150	=150	=150	=150	=150	=150
!	!	!LO:N:vis=2	!LO:N:vis=2	!	!	!	!	!	!	!	!	!LO:N:vis=2
8D/	.	4.r	4.r	.	.	8d\	Vi-	8f#\	-ve	2.r	.	4.r
8r	.	.	.	.	.	16e\LL	.	16g\LL	San-	.	.	.
.	.	.	.	.	.	16d\JJ	.	16f#\JJ	.	.	.	.
8GG/	.	.	.	.	.	8c#\	-ve	8e\	-cte	.	.	.
!	!	!	!	!	!	!LO:LB:g=original	!	!	!	!	!	!
*	*	*	*	*	*	*	*	*	*ij	*	*	*
8D/	.	16r	16r	.	.	8d\	San-	8e\	San-	.	.	16r
.	.	16ff#\LL	16aa\LL	.	.	.	.	.	.	.	.	16aa\LL
8r	.	16ff#\	16aa\	.	.	8d\	-cte	8f#\	-cte	.	.	16aa\
.	.	16ff#\	16aa\	.	.	.	.	.	.	.	.	16aa\
8r	.	16ff#\	16aa\	.	.	8r	.	8r	.	.	.	16aa\
.	.	16ff#\JJ	16aa\JJ	.	.	.	.	.	.	.	.	16aa\JJ
*	*	*	*	*	*	*	*	*	*Xij	*	*	*
!	!	!LO:LB:g=original	!	!	!	!	!	!LO:LB:g=original	!	!	!	!
=151	=151	=151	=151	=151	=151	=151	=151	=151	=151	=151	=151	=151
!LO:TX:b:i:t=tutti	!	!LO:TX:t=P:problem:mixed beam	!LO:TX:t=P:problem:mixed beam	!	!	!	!	!	!	!	!	!
16r	.	8ff#\L	8aa\L	8D/	Vi-	8d\	Vi-	8f#\	Vi-	8a\	Vi-	8ff#\L
16D\LL	.	.	.	.	.	.	.	.	.	.	.	.
16D\	.	8f#/J	8a/J	8.D/	-ve	8.d\	-ve	8.f#\	-ve	8a\	-ve	8dd\J
16D\	.	.	.	.	.	.	.	.	.	.	.	.
16D\	.	8r	8r	.	.	.	.	.	.	8a\	San-	8r
16D\JJ	.	.	.	16D/	San-	16d\	Be-	16f#\	San-	.	.	.
!LO:LB:g=original	!	!	!	!	!	!	!	!	!	!LO:LB:g=original	!	!
!LO:TX:t=P:problem:mixed beam	!	!	!	!	!	!	!	!	!	!	!	!
8E\L	.	16r	16r	8E\	.	8e\	-a-	8g\	.	8b\	.	16r
.	.	16ee\LL	16gg\LL	.	.	.	.	.	.	.	.	16gg\LL
8EE/J	.	16ee\	16gg\	8E\	-cte	8e\	-te	8g\	-cte	8b\	-cte	16gg\
.	.	16ee\	16gg\	.	.	.	.	.	.	.	.	16gg\
8r	.	16ee\	16gg\	8r	.	8r	.	8r	.	8r	.	16gg\
.	.	16ee\JJ	16gg\JJ	.	.	.	.	.	.	.	.	16gg\JJ
!	!	!	!LO:LB:g=original	!	!	!	!	!	!	!	!	!
=152	=152	=152	=152	=152	=152	=152	=152	=152	=152	=152	=152	=152
!	!	!LO:TX:t=P:problem:mixed beam	!LO:TX:t=P:problem:mixed beam	!	!	!	!	!	!	!	!	!
16r	.	8ee\L	8gg\L	8E\	Vi-	8e\	Vi-	8g\	Vi-	8b\	Vi-	4ee\
16E\LL	.	.	.	.	.	.	.	.	.	.	.	.
16E\	.	8e/J	8g/J	8.E\	-ve	8.B\	-ve	8.g\	-ve	8b\	-ve	.
16E\	.	.	.	.	.	.	.	.	.	.	.	.
16E\	.	8r	8r	.	.	.	.	.	.	8b\	Be-	8r
*	*	*	*	*	*ij	*	*ij	*	*ij	*	*	*
16E\JJ	.	.	.	16E\	San-	16B\	Be-	16g\	San-	.	.	.
!LO:TX:t=P:problem:mixed beam	!	!	!	!	!	!	!	!	!	!	!	!
8F#\L	6	16r	16r	8F#\	.	8c#\	-a-	8a\	.	8dd\	-a-	16r
!	!	!	!	!	!	!	!	!	!	!	!	!LO:LB:g=original
.	.	16ff#\LL	16aa\LL	.	.	.	.	.	.	.	.	16ff#\LL
8FF#/J	.	16ff#\	16aa\	8F#\	-cte	8A\	-te	8a\	-cte	8dd\	-te	16ff#\
.	.	16ff#\	16aa\	.	.	.	.	.	.	.	.	16ff#\
8r	.	16ff#\	16aa\	8r	.	8r	.	8r	.	8r	.	16dd\
.	.	16ff#\JJ	16aa\JJ	.	.	.	.	.	.	.	.	16aa\JJ
!	!	!	!	!LO:LB:g=original	!	!	!	!	!	!	!	!
=153	=153	=153	=153	=153	=153	=153	=153	=153	=153	=153	=153	=153
8r	.	8ff#\L	8aa\L	8r	.	8r	.	8r	.	8r	.	8ff#\L
8r	.	8dd\J	8ff#\J	8r	.	8r	.	8r	.	8r	.	8dd\J
*	*	*	*	*	*Xij	*	*Xij	*	*Xij	*	*	*
8F#\	6	2r	2r	8F#\	O	8A\	O	8f#\	O	8dd\	O	2r
8G\L	6 5	.	.	8G\L	mag-	4B\	mag-	4g\	mag-	4dd\	mag-	.
8E\	7	.	.	8E\J	.	.	.	.	.	.	.	.
8A\J	7	.	.	8A\	-ne	8A\	-ne	8g\	-ne	8cc#\	-ne	.
!	!	!	!	!	!	!LO:PB:g=original	!	!	!	!	!	!
=154	=154	=154	=154	=154	=154	=154	=154	=154	=154	=154	=154	=154
!	!	!LO:N:vis=2	!LO:N:vis=2	!	!	!LO:SIC:o:s=:v:wykreślone takty	!	!	!	!	!	!LO:N:vis=2
4D/	.	4.r	4.r	4D/	Vi-	4A/	vi-	4f#\	Vi-	4dd\	Vi-	4.r
8AA/	.	.	.	8AA/	-ve	8A/	-ve	8e\	-ve	8cc#\	-ve	.
!	!	!	!	!	!	!	!	!LO:LB:g=original	!	!	!	!
4D/	.	16r	16r	8D/	San-	8A/	San-	8f#\	San-	8dd\	San-	16r
.	.	16ff#\LL	16aa\LL	.	.	.	.	.	.	.	.	16aa\LL
.	.	16ff#\	16aa\	8D/	-cte	8A/	-cte	8f#\	-cte	8dd\	-cte	16aa\
.	.	16ff#\	16aa\	.	.	.	.	.	.	.	.	16aa\
8r	.	16ff#\	16aa\	8r	.	8r	.	8r	.	8r	.	16aa\
.	.	16ff#\JJ	16aa\JJ	.	.	.	.	.	.	.	.	16aa\JJ
=155	=155	=155	=155	=155	=155	=155	=155	=155	=155	=155	=155	=155
!	!	!	!LO:TX:t=P:problem:mixed beam	!	!	!	!	!	!	!	!	!LO:TX:t=P:problem:mixed beam
16r	.	8ff#\L	8aa\L	8D/	vi-	8d\	Vi-	8f#\	Vi-	8a\	Vi-	8aa\L
16D\LL	.	.	.	.	.	.	.	.	.	.	.	.
16D\	.	8f#/J	8a/J	8.D/	-ve	8.A\	-ve	8.f#\	-ve-	8.a\	-ve	8a/J
16D\	.	.	.	.	.	.	.	.	.	.	.	.
16D\	.	8r	8r	.	.	.	.	.	.	.	.	8r
16D\JJ	.	.	.	16D/	Be-	16d\	Be-	16f#\	-Be-	16a\	Be-	.
!LO:TX:t=P:problem:mixed beam	!	!	!	!	!	!	!	!	!	!	!	!
8E\L	.	16r	16r	8G\	-a-	8B\	-a-	8g\	-a-	8b\	-a-	16r
.	.	16ee\LL	16gg\LL	.	.	.	.	.	.	.	.	16gg\LL
8EE/J	.	16ee\	16gg\	8G\	-te	8B\	-te	8g\	-te	8b\	-te	16gg\
.	.	16ee\	16gg\	.	.	.	.	.	.	.	.	16gg\
8r	.	16ee\	16gg\	8r	.	8r	.	8r	.	8r	.	16gg\
.	.	16ee\JJ	16gg\JJ	.	.	.	.	.	.	.	.	16gg\JJ
!LO:LB:g=original	!	!LO:LB:g=original	!	!	!	!	!	!	!	!LO:LB:g=original	!	!
=156	=156	=156	=156	=156	=156	=156	=156	=156	=156	=156	=156	=156
!	!	!	!LO:TX:t=P:problem:mixed beam	!	!	!	!	!	!	!	!	!
16r	.	8ee\L	8gg\L	8E\	vi-	8e\	Vi-	8g\	Vi-	8b\	vi-	8gg\L
16E\LL	.	.	.	.	.	.	.	.	.	.	.	.
16E\	.	8e/J	8g/J	8.E\	-ve	8.B\	-ve	8.g\	-ve	8b\	-ve	8ee\J
16E\	.	.	.	.	.	.	.	.	.	.	.	.
*	*	*	*	*	*ij	*	*ij	*	*ij	*	*ij	*
16E\	.	8r	8r	.	.	.	.	.	.	8cc#\	Be-	8r
16E\JJ	.	.	.	16E\	Be-	16e\	Be-	16g\	Be-	.	.	.
!	!	!	!	!	!	!	!	!	!	!	!	!LO:LB;g=original
!LO:TX:t=P:problem:mixed beam	!	!	!	!	!	!	!	!	!	!	!	!
8F#\L	6	16r	16r	8A\	-a-	8f#\	-a-	8a\	-a-	8ddL\	-a-	16r
.	.	16ff#\LL	16aa\LL	.	.	.	.	.	.	.	.	16aa\LL
8FF#/J	.	16ff#\	16aa\	8A\	-te	8d\	-te	8a\	-te	8ddJ\	-te	16ff#\
.	.	16ff#\	16aa\	.	.	.	.	.	.	.	.	16aa\
8r	.	16ff#\	16aa\	8r	.	8r	.	8r	.	8r	.	16dd\
.	.	16ff#\JJ	16aa\JJ	.	.	.	.	.	.	.	.	16aa\JJ
!	!	!	!	!LO:LB:g=original	!	!LO:LB:g=original	!	!	!	!	!	!
=157	=157	=157	=157	=157	=157	=157	=157	=157	=157	=157	=157	=157
8r	.	8ff#\L	8aa\L	8r	.	8r	.	8r	.	8r	.	8ff#\L
8r	.	8dd\	8ff#\	8r	.	8r	.	8r	.	8r	.	8dd\
*	*	*	*	*	*Xij	*	*Xij	*	*Xij	*	*Xij	*
8F#\	6	8ff#\J	8aa\J	8F#\	O	8d\	O	8a\	O	8dd\	O	8ff#\J
!	!	!	!	!	!	!	!	!LO:PB:g=original	!	!	!	!
8G\L	6	4gg\	4bb\	8G\	mag-	4B\	mag-	4g\	mag-	8ee\L	mag-	4gg\
8E\	7	.	.	8E\	-ne	.	.	.	.	8dd\J	.	.
8A\J	7	8gg\	8aa\	8F#\	Vi-	8c#\	-ne	8g\	-ne	8cc#\	-ne	8gg\
!	!	!	!LO:LB:g=original	!	!	!	!	!	!	!	!	!
=158	=158	=158	=158	=158	=158	=158	=158	=158	=158	=158	=158	=158
4D/	.	4ff#\	4aa\	4D/	-ve	8A/	Vi-	4f#\	Vi-	4dd\	Vi-	4ff#\
.	.	.	.	.	.	8A/	-ve	.	.	.	.	.
8AA/	.	8ff#\	8aa\	8AA/	San-	8A/	San-	8e\	-ve	8cc#\	-ve	8dd\
8.D\L	.	16dd\LL	16ff#\LL	8D/	-cte	4G/	-cte	8f#\	San-	8dd\	San-	16ff#\LL
.	.	16cc#\	16ee\	.	.	.	.	.	.	.	.	16ee\
.	.	16dd\	16ff#\	8D/	.	.	.	8f#\	-cte	8dd\	-cte	16ff#\
16E\K	.	16ee\J	16gg\J	.	.	.	.	.	.	.	.	16gg\J
8F#\J	.	8ff#\J	8aa\J	8F#\	o	8d\	o-	8a\	O	8dd\	O	8aa\J
=159	=159	=159	=159	=159	=159	=159	=159	=159	=159	=159	=159	=159
8G\L	6	4gg\	4bb\	8G\L	mag-	4B\	-mag-	4g\	mag-	8ee\L	mag-	4gg\
8E\	7	.	.	8E\J	.	.	.	.	.	8dd\J	.	.
8A\J	7	8gg\	8ccc#\	8A\	-ne	8c#\	-ne	8g\	-ne	8cc#\	-ne	8gg\
4D/	.	4ff#\	4ddd\	4D/	Vi-	4A/	Vi-	4f#\	San-	4dd\	Vi-	4ff#\
8GG/	.	8ee\	8ccc#\	8AA/	-ve	8A/	-ve	8e\	-cte	8cc#\	-ve	8ee\
=160	=160	=160	=160	=160	=160	=160	=160	=160	=160	=160	=160	=160
4D/	.	16ff#\LL	16ddd\LL	8D/	San-	8A/	San-	8f#\	/San-	8dd\L	San-	16ff#\LL
.	.	16ff#\	16aa\	.	.	.	.	.	.	.	.	16aa\
.	.	16ff#\	16aa\	8D/	-cte.	8A/	-cte.	8f#\	-cte/	8dd\J	-cte	16ff#\
.	.	16ff#\	16aa\	.	.	.	.	.	.	.	.	16aa\
8r	.	16ff#\	16aa\	2r	.	8r	.	8r	.	8r	.	16ff#\
.	.	16ff#\JJ	16aa\JJ	.	.	.	.	.	.	.	.	16aa\JJ
!	!	!LO:TX:t=P:problem:mixed beam	!LO:TX:t=P:problem:mixed beam	!	!	!LO:N:vis=2	!	!LO:N:vis=2	!	!LO:N:vis=2	!	!LO:TX:t=P:problem:mixed beam
16r	.	8ff#\L	8aa\L	.	.	4.r	.	4.r	.	4.r	.	8aa\L
16D\LL	.	.	.	.	.	.	.	.	.	.	.	.
16D\	.	8f#/J	8a/J	.	.	.	.	.	.	.	.	8a/J
16D\	.	.	.	.	.	.	.	.	.	.	.	.
16D\	.	8r	8r	.	.	.	.	.	.	.	.	8r
16D\JJ	.	.	.	.	.	.	.	.	.	.	.	.
!LO:LB:g=original	!	!LO:LB:g=original	!	!	!	!	!	!	!	!	!	!LO:LB:g=original
=161	=161	=161	=161	=161	=161	=161	=161	=161	=161	=161	=161	=161
!LO:TX:t=P:problem:mixed beam	!	!	!	!	!	!	!	!	!	!	!	!
!	!	!	!	!LO:N:vis=00	!	!LO:N:vis=00	!	!LO:N:vis=00	!	!LO:N:vis=00	!	!
8E\L	.	16r	16r	0.r	.	0.r	.	0.r	.	0.r	.	16r
.	.	16ee\LL	16gg\LL	.	.	.	.	.	.	.	.	16gg\LL
8EE/J	.	16ee\	16gg\	.	.	.	.	.	.	.	.	16gg\
.	.	16ee\	16gg\	.	.	.	.	.	.	.	.	16gg\
8r	.	16ee\	16gg\	.	.	.	.	.	.	.	.	16gg\
.	.	16ee\JJ	16gg\JJ	.	.	.	.	.	.	.	.	16gg\JJ
!	!	!LO:TX:t=P:problem:mixed beam	!LO:TX:t=P:problem:mixed beam	!	!	!	!	!	!	!	!	!
16r	.	8ee\L	8gg\L	.	.	.	.	.	.	.	.	8gg\L
16E\LL	.	.	.	.	.	.	.	.	.	.	.	.
16E\	.	8e/J	8g/J	.	.	.	.	.	.	.	.	8ee\J
16E\	.	.	.	.	.	.	.	.	.	.	.	.
16E\	.	8r	8r	.	.	.	.	.	.	.	.	8r
16E\JJ	.	.	.	.	.	.	.	.	.	.	.	.
=162	=162	=162	=162	=162	=162	=162	=162	=162	=162	=162	=162	=162
!LO:TX:t=P:problem:mixed beam	!	!	!	!	!	!	!	!	!	!	!	!
8F#\L	6	16r	16r	.	.	.	.	.	.	.	.	16r
.	.	16ff#\LL	16aa\LL	.	.	.	.	.	.	.	.	16aa\LL
8FF#/J	.	16ff#\	16aa\	.	.	.	.	.	.	.	.	16aa\
.	.	16ff#\	16aa\	.	.	.	.	.	.	.	.	16aa\
8r	.	16ff#\	16aa\	.	.	.	.	.	.	.	.	16aa\
.	.	16ff#\JJ	16aa\JJ	.	.	.	.	.	.	.	.	16aa\JJ
8.D\L	.	8.ff#\L	8.aa\L	.	.	.	.	.	.	.	.	8.aa\L
16E\K	.	16ee\K	16gg\K	.	.	.	.	.	.	.	.	16gg\K
8F#\J	.	8dd\J	8ff#\J	.	.	.	.	.	.	.	.	8ff#\J
!	!	!	!LO:LB:g=original	!	!	!	!	!	!	!	!	!
=163	=163	=163	=163	=163	=163	=163	=163	=163	=163	=163	=163	=163
!LO:TX:t=P:problem:mixed beam	!	!	!	!	!	!	!	!	!	!	!	!
8G\L	.	8dd\L	16bb\LL	.	.	.	.	.	.	.	.	8bb\L
.	.	.	16ff#\JJ	.	.	.	.	.	.	.	.	.
8A\	.	8.dd\	8.ee\L	.	.	.	.	.	.	.	.	8.ee\
8AA/J	.	.	.	.	.	.	.	.	.	.	.	.
.	.	16cc#\Jk	16dd\Jk	.	.	.	.	.	.	.	.	16dd\Jk
4D/	.	16dd\LL	16dd\LL	.	.	.	.	.	.	.	.	16dd\LL
.	.	16ff#\	16aa\	.	.	.	.	.	.	.	.	16ff#\
.	.	16ff#\	16aa\	.	.	.	.	.	.	.	.	16ff#\
.	.	16ff#\	16aa\	.	.	.	.	.	.	.	.	16ff#\
8r	.	16ff#\	16aa\	.	.	.	.	.	.	.	.	16ff#\
.	.	16ff#\JJ	16aa\JJ	.	.	.	.	.	.	.	.	16ff#\JJ
!	!	!	!	!	!	!	!	!	!	!	!	!LO:LB:g=original
=164	=164	=164	=164	=164	=164	=164	=164	=164	=164	=164	=164	=164
!LO:TX:t=P:problem:mixed beam	!	!	!	!	!	!	!	!LO:TX:b:i:t=Ora pro J F Ruszkawſki	!	!	!	!
8G\L	.	8dd\L	16bb\LL	.	.	.	.	.	.	.	.	8gg\L
.	.	.	16ff#\JJ	.	.	.	.	.	.	.	.	.
8A\	.	8.dd\	8.ee\L	.	.	.	.	.	.	.	.	8.ee\
8AA/J	.	.	.	.	.	.	.	.	.	.	.	.
.	.	16cc#\Jk	16dd\Jk	.	.	.	.	.	.	.	.	16dd\Jk
!	!	!	!LO:TX:b:i:t=Ora pro J F Ruszkawſki	!	!	!	!	!	!	!	!	!
4D/	.	4dd\	4dd\	.	.	.	.	.	.	.	.	4dd\
8r	.	8r	8r	.	.	.	.	.	.	.	.	8r
==	==	==	==	==	==	==	==	==	==	==	==	==
*-	*-	*-	*-	*-	*-	*-	*-	*-	*-	*-	*-	*-
!!!system-decoration: [(s1)][(s2,s3,s4,s5)][(s6,s7)]s8
!!!EED: Leszek Kubiak
!!!EST: 2020-11-02
!!!ENC: Tomasz Grochalski
!!!END: 2020-04-20
